(G-CODE GENERATED BY FLATCAM v8.994 - www.flatcam.org - Version Date: 2020/11/7)

(Name: led nova_copperTop.gtl_iso_combined_cnc)
(Type: G-code from Geometry)
(Units: MM)

(Created on Saturday, 21 November 2020 at 19:15)

(This preprocessor is the default preprocessor used by FlatCAM.)
(It is made to work with MACH3 compatible motion controllers.)

(TOOL DIAMETER: 0.3155 mm)
(Feedrate_XY: 120.0 mm/min)
(Feedrate_Z: 60.0 mm/min)
(Feedrate rapids 1500.0 mm/min)

(Z_Cut: -0.1 mm)
(Z_Move: 2.0 mm)
(Z Start: None mm)
(Z End: 5.0 mm)
(X,Y End: None mm)
(Steps per circle: 64)
(Preprocessor Geometry: default)

(X range:    0.6886 ...   44.1645  mm)
(Y range:    1.1330 ...   43.5375  mm)

(Spindle Speed: 100.0 RPM)
G21
G90
G94

G01 F120.00

M5
G00 Z15.0000
G00 X0.0000 Y0.0000
T1
M6    
(MSG, Change to Tool Dia = 0.3155)
M0
G00 Z15.0000

M03 S100.0
G01 F120.00
G00 X4.2033 Y2.3931
G01 F60.00
G01 Z-0.1000
G01 F120.00
G01 X4.2372 Y1.8507
G01 X4.2390 Y1.8304
G01 X4.2423 Y1.8056
G01 X4.2452 Y1.7893
G01 X4.2508 Y1.7650
G01 X4.2551 Y1.7490
G01 X4.2669 Y1.7143
G01 X4.2730 Y1.6990
G01 X4.2834 Y1.6762
G01 X4.2928 Y1.6581
G01 X4.3053 Y1.6365
G01 X4.3143 Y1.6225
G01 X4.3334 Y1.5960
G01 X4.3438 Y1.5831
G01 X4.3577 Y1.5672
G01 X4.3746 Y1.5497
G01 X4.3958 Y1.5301
G01 X4.4085 Y1.5195
G01 X4.4252 Y1.5066
G01 X4.4452 Y1.4928
G01 X4.4698 Y1.4777
G01 X4.4843 Y1.4698
G01 X4.5033 Y1.4604
G01 X4.5255 Y1.4507
G01 X4.5453 Y1.4432
G01 X4.5610 Y1.4380
G01 X4.5888 Y1.4302
G01 X4.6125 Y1.4251
G01 X4.6334 Y1.4216
G01 X4.6498 Y1.4196
G01 X4.6825 Y1.4172
G01 X4.6990 Y1.4169
G01 X35.1536 Y1.4169
G01 X35.1990 Y1.4191
G01 X35.2401 Y1.4251
G01 X35.2514 Y1.4275
G01 X35.2879 Y1.4368
G01 X35.3234 Y1.4493
G01 X35.3377 Y1.4553
G01 X35.3683 Y1.4698
G01 X35.3785 Y1.4754
G01 X35.4107 Y1.4949
G01 X35.4471 Y1.5219
G01 X35.4808 Y1.5524
G01 X35.5062 Y1.5802
G01 X35.5160 Y1.5922
G01 X35.5361 Y1.6193
G01 X35.5425 Y1.6291
G01 X35.5617 Y1.6615
G01 X35.5811 Y1.7025
G01 X35.5964 Y1.7453
G01 X35.6057 Y1.7818
G01 X35.6087 Y1.7970
G01 X35.6136 Y1.8304
G01 X35.6146 Y1.8420
G01 X35.6163 Y1.8796
G01 X35.6163 Y9.0369
G01 X41.7147 Y9.0369
G01 X41.7402 Y8.9831
G01 X41.7455 Y8.9728
G01 X41.7955 Y8.8893
G01 X41.8019 Y8.8796
G01 X41.8646 Y8.7953
G01 X41.9350 Y8.7173
G01 X41.9433 Y8.7092
G01 X42.0126 Y8.6464
G01 X42.0246 Y8.6366
G01 X42.1060 Y8.5765
G01 X42.1960 Y8.5223
G01 X42.2063 Y8.5170
G01 X42.2908 Y8.4770
G01 X42.3052 Y8.4711
G01 X42.4005 Y8.4372
G01 X42.5062 Y8.4107
G01 X42.6063 Y8.3956
G01 X42.6217 Y8.3941
G01 X42.7228 Y8.3894
G01 X42.8278 Y8.3944
G01 X42.8393 Y8.3956
G01 X42.9394 Y8.4107
G01 X43.0451 Y8.4372
G01 X43.1477 Y8.4739
G01 X43.2462 Y8.5204
G01 X43.3396 Y8.5765
G01 X43.4271 Y8.6414
G01 X43.5079 Y8.7145
G01 X43.5760 Y8.7894
G01 X43.5858 Y8.8014
G01 X43.6415 Y8.8764
G01 X43.6501 Y8.8893
G01 X43.7020 Y8.9762
G01 X43.7454 Y9.0676
G01 X43.7513 Y9.0820
G01 X43.7852 Y9.1773
G01 X43.8100 Y9.2754
G01 X43.8130 Y9.2906
G01 X43.8277 Y9.3908
G01 X43.8330 Y9.4996
G01 X43.8277 Y9.6084
G01 X43.8124 Y9.7124
G01 X43.8100 Y9.7238
G01 X43.7852 Y9.8219
G01 X43.7513 Y9.9172
G01 X43.7454 Y9.9316
G01 X43.7054 Y10.0161
G01 X43.6981 Y10.0297
G01 X43.6459 Y10.1164
G01 X43.5810 Y10.2039
G01 X43.5079 Y10.2847
G01 X43.4271 Y10.3578
G01 X43.3396 Y10.4227
G01 X43.2529 Y10.4749
G01 X43.2393 Y10.4822
G01 X43.1548 Y10.5222
G01 X43.1404 Y10.5281
G01 X43.0451 Y10.5620
G01 X42.9394 Y10.5885
G01 X42.8316 Y10.6045
G01 X42.7267 Y10.6098
G01 X42.7151 Y10.6097
G01 X42.6217 Y10.6051
G01 X42.6063 Y10.6036
G01 X42.5062 Y10.5885
G01 X42.4005 Y10.5620
G01 X42.3052 Y10.5281
G01 X42.2908 Y10.5222
G01 X42.1994 Y10.4788
G01 X42.1092 Y10.4248
G01 X42.0996 Y10.4183
G01 X42.0246 Y10.3626
G01 X42.0126 Y10.3528
G01 X41.9377 Y10.2847
G01 X41.8671 Y10.2069
G01 X41.8598 Y10.1978
G01 X41.8041 Y10.1228
G01 X41.7976 Y10.1132
G01 X41.7436 Y10.0230
G01 X41.7147 Y9.9623
G01 X35.6163 Y9.9623
G01 X35.6163 Y14.5796
G01 X35.6144 Y14.6211
G01 X35.6131 Y14.6326
G01 X35.6087 Y14.6622
G01 X35.6057 Y14.6774
G01 X35.5964 Y14.7139
G01 X35.5811 Y14.7567
G01 X35.5617 Y14.7977
G01 X35.5425 Y14.8301
G01 X35.5339 Y14.8430
G01 X35.5137 Y14.8701
G01 X35.5062 Y14.8790
G01 X35.4808 Y14.9068
G01 X35.4471 Y14.9373
G01 X35.4107 Y14.9643
G01 X35.3785 Y14.9838
G01 X35.3648 Y14.9911
G01 X35.3377 Y15.0039
G01 X35.3271 Y15.0085
G01 X35.2879 Y15.0224
G01 X35.2477 Y15.0326
G01 X35.2362 Y15.0347
G01 X35.1990 Y15.0401
G01 X35.1536 Y15.0423
G01 X20.3509 Y15.0423
G01 X20.3509 Y16.1236
G01 X20.3793 Y16.1370
G01 X20.3896 Y16.1423
G01 X20.4731 Y16.1923
G01 X20.4828 Y16.1987
G01 X20.5671 Y16.2614
G01 X20.6451 Y16.3318
G01 X20.6532 Y16.3401
G01 X20.7210 Y16.4153
G01 X20.7815 Y16.4964
G01 X20.7901 Y16.5093
G01 X20.8381 Y16.5895
G01 X20.8437 Y16.5997
G01 X20.8885 Y16.6947
G01 X20.9252 Y16.7973
G01 X20.9517 Y16.9030
G01 X20.9668 Y17.0031
G01 X20.9683 Y17.0185
G01 X20.9729 Y17.1119
G01 X20.9729 Y17.1273
G01 X20.9677 Y17.2284
G01 X20.9530 Y17.3286
G01 X20.9509 Y17.3400
G01 X20.9252 Y17.4419
G01 X20.8885 Y17.5445
G01 X20.8420 Y17.6430
G01 X20.7859 Y17.7364
G01 X20.7210 Y17.8239
G01 X20.6479 Y17.9047
G01 X20.5671 Y17.9778
G01 X20.4796 Y18.0427
G01 X20.3862 Y18.0988
G01 X20.2877 Y18.1453
G01 X20.1851 Y18.1820
G01 X20.0794 Y18.2085
G01 X19.9716 Y18.2245
G01 X19.8628 Y18.2298
G01 X19.7540 Y18.2245
G01 X19.6500 Y18.2092
G01 X19.6386 Y18.2068
G01 X19.5405 Y18.1820
G01 X19.4452 Y18.1481
G01 X19.4308 Y18.1422
G01 X19.3463 Y18.1022
G01 X19.3327 Y18.0949
G01 X19.2460 Y18.0427
G01 X19.1585 Y17.9778
G01 X19.0777 Y17.9047
G01 X19.0046 Y17.8239
G01 X18.9397 Y17.7364
G01 X18.8836 Y17.6430
G01 X18.8371 Y17.5445
G01 X18.8028 Y17.4492
G01 X18.7983 Y17.4344
G01 X18.7756 Y17.3438
G01 X18.7726 Y17.3286
G01 X18.7579 Y17.2284
G01 X18.7527 Y17.1273
G01 X18.7526 Y17.1157
G01 X18.7579 Y17.0108
G01 X18.7726 Y16.9106
G01 X18.7756 Y16.8954
G01 X18.8004 Y16.7973
G01 X18.8343 Y16.7020
G01 X18.8402 Y16.6876
G01 X18.8836 Y16.5962
G01 X18.9397 Y16.5028
G01 X18.9998 Y16.4214
G01 X19.0096 Y16.4094
G01 X19.0777 Y16.3345
G01 X19.1585 Y16.2614
G01 X19.2396 Y16.2009
G01 X19.2525 Y16.1923
G01 X19.3394 Y16.1404
G01 X19.4255 Y16.0995
G01 X19.4255 Y14.5796
G01 X19.4277 Y14.5342
G01 X19.4337 Y14.4931
G01 X19.4361 Y14.4818
G01 X19.4434 Y14.4527
G01 X19.4479 Y14.4379
G01 X19.4607 Y14.4025
G01 X19.4767 Y14.3684
G01 X19.4840 Y14.3547
G01 X19.5035 Y14.3225
G01 X19.5258 Y14.2922
G01 X19.5356 Y14.2802
G01 X19.5610 Y14.2524
G01 X19.5888 Y14.2270
G01 X19.6008 Y14.2172
G01 X19.6311 Y14.1949
G01 X19.6701 Y14.1715
G01 X19.7041 Y14.1553
G01 X19.7184 Y14.1493
G01 X19.7465 Y14.1393
G01 X19.7576 Y14.1357
G01 X19.7979 Y14.1258
G01 X19.8352 Y14.1201
G01 X19.8506 Y14.1186
G01 X19.8882 Y14.1169
G01 X34.6909 Y14.1169
G01 X34.6909 Y9.9623
G01 X33.5709 Y9.9623
G01 X33.5454 Y10.0161
G01 X33.5401 Y10.0264
G01 X33.4901 Y10.1099
G01 X33.4837 Y10.1196
G01 X33.4210 Y10.2039
G01 X33.3506 Y10.2819
G01 X33.3423 Y10.2900
G01 X33.2730 Y10.3528
G01 X33.2610 Y10.3626
G01 X33.1796 Y10.4227
G01 X33.0896 Y10.4769
G01 X33.0793 Y10.4822
G01 X32.9948 Y10.5222
G01 X32.9804 Y10.5281
G01 X32.8851 Y10.5620
G01 X32.7794 Y10.5885
G01 X32.6716 Y10.6045
G01 X32.5705 Y10.6097
G01 X32.5551 Y10.6097
G01 X32.4617 Y10.6051
G01 X32.4463 Y10.6036
G01 X32.3462 Y10.5885
G01 X32.2405 Y10.5620
G01 X32.1379 Y10.5253
G01 X32.0394 Y10.4788
G01 X31.9460 Y10.4227
G01 X31.8585 Y10.3578
G01 X31.7777 Y10.2847
G01 X31.7096 Y10.2098
G01 X31.6998 Y10.1978
G01 X31.6441 Y10.1228
G01 X31.6355 Y10.1099
G01 X31.5836 Y10.0230
G01 X31.5402 Y9.9316
G01 X31.5343 Y9.9172
G01 X31.5004 Y9.8219
G01 X31.4739 Y9.7162
G01 X31.4579 Y9.6084
G01 X31.4526 Y9.4996
G01 X31.4579 Y9.3908
G01 X31.4739 Y9.2830
G01 X31.5004 Y9.1773
G01 X31.5343 Y9.0820
G01 X31.5402 Y9.0676
G01 X31.5836 Y8.9762
G01 X31.6355 Y8.8893
G01 X31.6441 Y8.8764
G01 X31.6998 Y8.8014
G01 X31.7096 Y8.7894
G01 X31.7777 Y8.7145
G01 X31.8585 Y8.6414
G01 X31.9460 Y8.5765
G01 X32.0394 Y8.5204
G01 X32.1379 Y8.4739
G01 X32.2405 Y8.4372
G01 X32.3462 Y8.4107
G01 X32.4463 Y8.3956
G01 X32.4617 Y8.3941
G01 X32.5551 Y8.3895
G01 X32.5705 Y8.3895
G01 X32.6716 Y8.3947
G01 X32.7794 Y8.4107
G01 X32.8851 Y8.4372
G01 X32.9804 Y8.4711
G01 X32.9948 Y8.4770
G01 X33.0793 Y8.5170
G01 X33.0896 Y8.5223
G01 X33.1796 Y8.5765
G01 X33.2610 Y8.6366
G01 X33.2730 Y8.6464
G01 X33.3423 Y8.7092
G01 X33.3506 Y8.7173
G01 X33.4210 Y8.7953
G01 X33.4837 Y8.8796
G01 X33.4901 Y8.8893
G01 X33.5401 Y8.9728
G01 X33.5454 Y8.9831
G01 X33.5709 Y9.0369
G01 X34.6909 Y9.0369
G01 X34.6909 Y2.3423
G01 X25.4499 Y2.3423
G01 X25.4349 Y3.4254
G01 X25.4593 Y3.4370
G01 X25.4696 Y3.4423
G01 X25.5531 Y3.4923
G01 X25.5628 Y3.4987
G01 X25.6471 Y3.5614
G01 X25.7251 Y3.6318
G01 X25.7332 Y3.6401
G01 X25.7960 Y3.7094
G01 X25.8058 Y3.7214
G01 X25.8659 Y3.8028
G01 X25.9181 Y3.8895
G01 X25.9237 Y3.8997
G01 X25.9685 Y3.9947
G01 X26.0028 Y4.0900
G01 X26.0073 Y4.1048
G01 X26.0300 Y4.1954
G01 X26.0330 Y4.2106
G01 X26.0477 Y4.3108
G01 X26.0530 Y4.4196
G01 X26.0477 Y4.5284
G01 X26.0330 Y4.6286
G01 X26.0300 Y4.6438
G01 X26.0073 Y4.7344
G01 X26.0028 Y4.7492
G01 X25.9685 Y4.8445
G01 X25.9254 Y4.9361
G01 X25.9181 Y4.9497
G01 X25.8659 Y5.0364
G01 X25.8010 Y5.1239
G01 X25.7279 Y5.2047
G01 X25.6471 Y5.2778
G01 X25.5596 Y5.3427
G01 X25.4729 Y5.3949
G01 X25.4593 Y5.4022
G01 X25.3748 Y5.4422
G01 X25.3604 Y5.4481
G01 X25.2651 Y5.4820
G01 X25.1594 Y5.5085
G01 X25.0516 Y5.5245
G01 X24.9428 Y5.5298
G01 X24.8340 Y5.5245
G01 X24.7262 Y5.5085
G01 X24.6205 Y5.4820
G01 X24.5252 Y5.4481
G01 X24.5108 Y5.4422
G01 X24.4194 Y5.3988
G01 X24.3325 Y5.3469
G01 X24.3196 Y5.3383
G01 X24.2446 Y5.2826
G01 X24.2326 Y5.2728
G01 X24.1577 Y5.2047
G01 X24.0846 Y5.1239
G01 X24.0197 Y5.0364
G01 X23.9636 Y4.9430
G01 X23.9171 Y4.8445
G01 X23.8804 Y4.7419
G01 X23.8539 Y4.6362
G01 X23.8383 Y4.5323
G01 X23.8373 Y4.5207
G01 X23.8327 Y4.4273
G01 X23.8327 Y4.4119
G01 X23.8379 Y4.3108
G01 X23.8539 Y4.2030
G01 X23.8804 Y4.0973
G01 X23.9143 Y4.0020
G01 X23.9202 Y3.9876
G01 X23.9602 Y3.9031
G01 X23.9675 Y3.8895
G01 X24.0197 Y3.8028
G01 X24.0798 Y3.7214
G01 X24.0896 Y3.7094
G01 X24.1524 Y3.6401
G01 X24.1633 Y3.6292
G01 X24.2385 Y3.5614
G01 X24.3260 Y3.4965
G01 X24.4194 Y3.4404
G01 X24.5098 Y3.3975
G01 X24.5244 Y2.3423
G01 X20.3492 Y2.3423
G01 X20.3271 Y8.3194
G01 X20.3292 Y8.3220
G01 X20.3370 Y8.3286
G01 X20.3426 Y8.3340
G01 X20.3480 Y8.3396
G01 X20.3546 Y8.3474
G01 X20.3624 Y8.3540
G01 X20.3680 Y8.3594
G01 X20.3734 Y8.3650
G01 X20.3800 Y8.3728
G01 X20.3878 Y8.3794
G01 X20.3934 Y8.3848
G01 X20.3988 Y8.3904
G01 X20.4054 Y8.3982
G01 X20.4132 Y8.4048
G01 X20.4188 Y8.4102
G01 X20.4242 Y8.4158
G01 X20.4308 Y8.4236
G01 X20.4386 Y8.4302
G01 X20.4442 Y8.4356
G01 X20.4496 Y8.4412
G01 X20.4562 Y8.4490
G01 X20.4640 Y8.4556
G01 X20.4723 Y8.4637
G01 X20.4825 Y8.4754
G01 X20.4871 Y8.4817
G01 X20.4934 Y8.4914
G01 X20.4972 Y8.4981
G01 X20.5023 Y8.5086
G01 X20.5066 Y8.5194
G01 X20.5096 Y8.5285
G01 X20.5168 Y8.5389
G01 X20.5244 Y8.5524
G01 X20.5307 Y8.5665
G01 X20.5350 Y8.5793
G01 X20.5422 Y8.5897
G01 X20.5480 Y8.5997
G01 X20.5546 Y8.6137
G01 X20.5604 Y8.6301
G01 X20.5655 Y8.6373
G01 X20.5716 Y8.6471
G01 X20.5769 Y8.6575
G01 X20.5815 Y8.6681
G01 X20.5853 Y8.6791
G01 X20.5873 Y8.6866
G01 X20.5903 Y8.7018
G01 X20.5919 Y8.7172
G01 X20.5920 Y8.7407
G01 X20.6006 Y8.7556
G01 X20.6069 Y8.7697
G01 X20.6095 Y8.7770
G01 X20.6127 Y8.7882
G01 X20.6157 Y8.8034
G01 X20.6170 Y8.8149
G01 X20.6174 Y8.8265
G01 X20.6173 Y10.2566
G01 X20.6163 Y10.2682
G01 X20.6144 Y10.2797
G01 X20.6127 Y10.2872
G01 X20.6095 Y10.2984
G01 X20.6069 Y10.3057
G01 X20.6023 Y10.3163
G01 X20.5970 Y10.3266
G01 X20.5920 Y10.3347
G01 X20.5919 Y10.3582
G01 X20.5903 Y10.3736
G01 X20.5890 Y10.3813
G01 X20.5863 Y10.3926
G01 X20.5828 Y10.4036
G01 X20.5800 Y10.4109
G01 X20.5769 Y10.4179
G01 X20.5716 Y10.4282
G01 X20.5655 Y10.4381
G01 X20.5604 Y10.4453
G01 X20.5546 Y10.4617
G01 X20.5480 Y10.4757
G01 X20.5422 Y10.4857
G01 X20.5350 Y10.4961
G01 X20.5307 Y10.5089
G01 X20.5244 Y10.5230
G01 X20.5168 Y10.5365
G01 X20.5096 Y10.5469
G01 X20.5038 Y10.5633
G01 X20.4972 Y10.5773
G01 X20.4914 Y10.5873
G01 X20.4848 Y10.5969
G01 X20.4800 Y10.6030
G01 X20.4724 Y10.6117
G01 X20.4640 Y10.6198
G01 X20.4562 Y10.6264
G01 X20.4496 Y10.6342
G01 X20.4415 Y10.6425
G01 X20.4308 Y10.6518
G01 X20.4242 Y10.6596
G01 X20.4188 Y10.6652
G01 X20.4132 Y10.6706
G01 X20.4054 Y10.6772
G01 X20.3988 Y10.6850
G01 X20.3934 Y10.6906
G01 X20.3878 Y10.6960
G01 X20.3800 Y10.7026
G01 X20.3734 Y10.7104
G01 X20.3680 Y10.7160
G01 X20.3624 Y10.7214
G01 X20.3546 Y10.7280
G01 X20.3480 Y10.7358
G01 X20.3426 Y10.7414
G01 X20.3370 Y10.7468
G01 X20.3292 Y10.7534
G01 X20.3226 Y10.7612
G01 X20.3172 Y10.7668
G01 X20.3116 Y10.7722
G01 X20.3038 Y10.7788
G01 X20.2972 Y10.7866
G01 X20.2891 Y10.7949
G01 X20.2774 Y10.8051
G01 X20.2711 Y10.8097
G01 X20.2614 Y10.8160
G01 X20.2547 Y10.8198
G01 X20.2442 Y10.8249
G01 X20.2334 Y10.8292
G01 X20.2243 Y10.8322
G01 X20.2139 Y10.8394
G01 X20.2004 Y10.8470
G01 X20.1863 Y10.8533
G01 X20.1735 Y10.8576
G01 X20.1631 Y10.8648
G01 X20.1531 Y10.8706
G01 X20.1426 Y10.8757
G01 X20.1318 Y10.8800
G01 X20.1170 Y10.8845
G01 X20.1057 Y10.8869
G01 X20.0980 Y10.8881
G01 X20.0826 Y10.8892
G01 X20.0629 Y10.8892
G01 X20.0549 Y10.8942
G01 X20.0445 Y10.8995
G01 X20.0339 Y10.9041
G01 X20.0229 Y10.9079
G01 X20.0117 Y10.9108
G01 X20.0002 Y10.9129
G01 X19.9887 Y10.9142
G01 X19.9771 Y10.9146
G01 X19.7231 Y10.9146
G01 X19.7076 Y10.9139
G01 X19.6923 Y10.9116
G01 X19.6773 Y10.9079
G01 X19.6627 Y10.9026
G01 X19.6487 Y10.8960
G01 X19.6373 Y10.8892
G01 X19.6138 Y10.8891
G01 X19.5984 Y10.8875
G01 X19.5869 Y10.8854
G01 X19.5794 Y10.8835
G01 X19.5647 Y10.8787
G01 X19.5541 Y10.8741
G01 X19.5438 Y10.8688
G01 X19.5339 Y10.8627
G01 X19.5267 Y10.8576
G01 X19.5103 Y10.8518
G01 X19.4963 Y10.8452
G01 X19.4863 Y10.8394
G01 X19.4759 Y10.8322
G01 X19.4631 Y10.8279
G01 X19.4490 Y10.8216
G01 X19.4388 Y10.8160
G01 X19.4291 Y10.8097
G01 X19.4198 Y10.8026
G01 X19.4111 Y10.7950
G01 X19.4030 Y10.7866
G01 X19.3964 Y10.7788
G01 X19.3886 Y10.7722
G01 X19.3830 Y10.7668
G01 X19.3727 Y10.7555
G01 X19.3615 Y10.7517
G01 X19.3509 Y10.7471
G01 X19.3406 Y10.7418
G01 X19.3275 Y10.7335
G01 X19.3213 Y10.7289
G01 X19.3124 Y10.7214
G01 X19.3041 Y10.7133
G01 X19.2948 Y10.7026
G01 X19.2870 Y10.6960
G01 X19.2814 Y10.6906
G01 X19.2760 Y10.6850
G01 X19.2685 Y10.6762
G01 X19.2639 Y10.6699
G01 X19.2576 Y10.6602
G01 X19.2538 Y10.6535
G01 X19.2487 Y10.6430
G01 X19.2444 Y10.6322
G01 X19.2419 Y10.6247
G01 X19.2306 Y10.6144
G01 X19.2252 Y10.6088
G01 X19.2186 Y10.6010
G01 X19.2108 Y10.5944
G01 X19.2025 Y10.5863
G01 X19.1923 Y10.5746
G01 X19.1855 Y10.5651
G01 X19.1794 Y10.5553
G01 X19.1741 Y10.5449
G01 X19.1695 Y10.5343
G01 X19.1652 Y10.5215
G01 X19.1560 Y10.5078
G01 X19.1487 Y10.4941
G01 X19.1441 Y10.4835
G01 X19.1398 Y10.4707
G01 X19.1326 Y10.4603
G01 X19.1268 Y10.4503
G01 X19.1217 Y10.4398
G01 X19.1174 Y10.4290
G01 X19.1139 Y10.4180
G01 X19.1120 Y10.4105
G01 X19.1093 Y10.3952
G01 X19.1082 Y10.3798
G01 X19.1082 Y10.3601
G01 X19.1032 Y10.3521
G01 X19.0979 Y10.3417
G01 X19.0948 Y10.3347
G01 X19.0907 Y10.3238
G01 X19.0885 Y10.3164
G01 X19.0858 Y10.3051
G01 X19.0845 Y10.2974
G01 X19.0832 Y10.2859
G01 X19.0828 Y10.2743
G01 X19.0828 Y8.8011
G01 X19.0832 Y8.7895
G01 X19.0845 Y8.7780
G01 X19.0875 Y8.7628
G01 X19.0907 Y8.7516
G01 X19.0933 Y8.7443
G01 X19.0996 Y8.7302
G01 X19.1032 Y8.7234
G01 X19.1085 Y8.7148
G01 X19.1099 Y8.7018
G01 X19.1129 Y8.6866
G01 X19.1161 Y8.6754
G01 X19.1217 Y8.6610
G01 X19.1250 Y8.6540
G01 X19.1306 Y8.6438
G01 X19.1398 Y8.6301
G01 X19.1441 Y8.6173
G01 X19.1504 Y8.6032
G01 X19.1580 Y8.5897
G01 X19.1652 Y8.5793
G01 X19.1695 Y8.5665
G01 X19.1741 Y8.5559
G01 X19.1814 Y8.5422
G01 X19.1906 Y8.5285
G01 X19.1949 Y8.5157
G01 X19.1995 Y8.5051
G01 X19.2048 Y8.4948
G01 X19.2109 Y8.4849
G01 X19.2202 Y8.4724
G01 X19.2306 Y8.4610
G01 X19.2362 Y8.4556
G01 X19.2440 Y8.4490
G01 X19.2506 Y8.4412
G01 X19.2587 Y8.4329
G01 X19.2694 Y8.4236
G01 X19.2760 Y8.4158
G01 X19.2814 Y8.4102
G01 X19.2870 Y8.4048
G01 X19.2948 Y8.3982
G01 X19.3014 Y8.3904
G01 X19.3068 Y8.3848
G01 X19.3124 Y8.3794
G01 X19.3202 Y8.3728
G01 X19.3268 Y8.3650
G01 X19.3322 Y8.3594
G01 X19.3378 Y8.3540
G01 X19.3456 Y8.3474
G01 X19.3548 Y8.3367
G01 X19.3632 Y8.3286
G01 X19.3710 Y8.3220
G01 X19.3776 Y8.3142
G01 X19.3830 Y8.3086
G01 X19.3915 Y8.3007
G01 X19.4018 Y8.2925
G01 X19.4238 Y2.3423
G01 X12.6866 Y2.3423
G01 X12.7014 Y3.4096
G01 X12.7593 Y3.4370
G01 X12.7696 Y3.4423
G01 X12.8531 Y3.4923
G01 X12.8628 Y3.4987
G01 X12.9471 Y3.5614
G01 X13.0251 Y3.6318
G01 X13.0332 Y3.6401
G01 X13.0960 Y3.7094
G01 X13.1058 Y3.7214
G01 X13.1659 Y3.8028
G01 X13.2201 Y3.8928
G01 X13.2254 Y3.9031
G01 X13.2654 Y3.9876
G01 X13.2713 Y4.0020
G01 X13.3052 Y4.0973
G01 X13.3317 Y4.2030
G01 X13.3477 Y4.3108
G01 X13.3529 Y4.4119
G01 X13.3529 Y4.4273
G01 X13.3483 Y4.5207
G01 X13.3468 Y4.5361
G01 X13.3317 Y4.6362
G01 X13.3052 Y4.7419
G01 X13.2685 Y4.8445
G01 X13.2220 Y4.9430
G01 X13.1659 Y5.0364
G01 X13.1010 Y5.1239
G01 X13.0279 Y5.2047
G01 X12.9530 Y5.2728
G01 X12.9410 Y5.2826
G01 X12.8660 Y5.3383
G01 X12.8531 Y5.3469
G01 X12.7662 Y5.3988
G01 X12.6748 Y5.4422
G01 X12.6604 Y5.4481
G01 X12.5651 Y5.4820
G01 X12.4594 Y5.5085
G01 X12.3516 Y5.5245
G01 X12.2428 Y5.5298
G01 X12.1340 Y5.5245
G01 X12.0338 Y5.5098
G01 X12.0186 Y5.5068
G01 X11.9280 Y5.4841
G01 X11.9132 Y5.4796
G01 X11.8179 Y5.4453
G01 X11.7194 Y5.3988
G01 X11.6260 Y5.3427
G01 X11.5385 Y5.2778
G01 X11.4577 Y5.2047
G01 X11.3846 Y5.1239
G01 X11.3197 Y5.0364
G01 X11.2675 Y4.9497
G01 X11.2602 Y4.9361
G01 X11.2171 Y4.8445
G01 X11.1828 Y4.7492
G01 X11.1783 Y4.7344
G01 X11.1556 Y4.6438
G01 X11.1526 Y4.6286
G01 X11.1379 Y4.5284
G01 X11.1326 Y4.4196
G01 X11.1379 Y4.3108
G01 X11.1526 Y4.2106
G01 X11.1556 Y4.1954
G01 X11.1783 Y4.1048
G01 X11.1828 Y4.0900
G01 X11.2171 Y3.9947
G01 X11.2619 Y3.8997
G01 X11.2675 Y3.8895
G01 X11.3155 Y3.8093
G01 X11.3241 Y3.7964
G01 X11.3846 Y3.7153
G01 X11.4524 Y3.6401
G01 X11.4605 Y3.6318
G01 X11.5385 Y3.5614
G01 X11.6228 Y3.4987
G01 X11.6325 Y3.4923
G01 X11.7160 Y3.4423
G01 X11.7263 Y3.4370
G01 X11.7760 Y3.4135
G01 X11.7611 Y2.3423
G01 X5.1337 Y2.3423
G01 X5.1282 Y2.4306
G01 X5.1654 Y2.4482
G01 X5.1757 Y2.4536
G01 X5.2639 Y2.5064
G01 X5.2736 Y2.5127
G01 X5.3623 Y2.5787
G01 X5.4415 Y2.6502
G01 X5.4498 Y2.6583
G01 X5.5239 Y2.7403
G01 X5.5921 Y2.8321
G01 X5.6509 Y2.9303
G01 X5.6967 Y3.0266
G01 X5.7026 Y3.0409
G01 X5.7359 Y3.1340
G01 X5.7404 Y3.1489
G01 X5.7661 Y3.2524
G01 X5.7829 Y3.3655
G01 X5.7885 Y3.4798
G01 X5.7835 Y3.5863
G01 X5.7820 Y3.6017
G01 X5.7675 Y3.6996
G01 X5.7653 Y3.7110
G01 X5.7383 Y3.8182
G01 X5.6998 Y3.9259
G01 X5.6509 Y4.0293
G01 X5.5962 Y4.1209
G01 X5.5876 Y4.1338
G01 X5.5287 Y4.2132
G01 X5.5189 Y4.2252
G01 X5.4471 Y4.3041
G01 X5.3623 Y4.3809
G01 X5.2705 Y4.4491
G01 X5.1791 Y4.5041
G01 X5.1654 Y4.5114
G01 X5.0760 Y4.5537
G01 X5.0617 Y4.5596
G01 X4.9612 Y4.5953
G01 X4.8502 Y4.6231
G01 X4.7371 Y4.6399
G01 X4.6228 Y4.6455
G01 X4.5085 Y4.6399
G01 X4.4030 Y4.6245
G01 X4.3878 Y4.6215
G01 X4.2919 Y4.5974
G01 X4.2770 Y4.5929
G01 X4.1767 Y4.5568
G01 X4.0733 Y4.5079
G01 X3.9751 Y4.4491
G01 X3.8833 Y4.3809
G01 X3.7985 Y4.3041
G01 X3.7217 Y4.2193
G01 X3.6535 Y4.1275
G01 X3.5985 Y4.0361
G01 X3.5912 Y4.0224
G01 X3.5489 Y3.9330
G01 X3.5430 Y3.9187
G01 X3.5073 Y3.8182
G01 X3.4795 Y3.7072
G01 X3.4627 Y3.5941
G01 X3.4571 Y3.4798
G01 X3.4627 Y3.3655
G01 X3.4781 Y3.2600
G01 X3.4811 Y3.2448
G01 X3.5052 Y3.1489
G01 X3.5097 Y3.1340
G01 X3.5458 Y3.0337
G01 X3.5912 Y2.9372
G01 X3.5966 Y2.9269
G01 X3.6535 Y2.8321
G01 X3.7217 Y2.7403
G01 X3.7985 Y2.6555
G01 X3.8803 Y2.5812
G01 X3.8894 Y2.5739
G01 X3.9751 Y2.5105
G01 X4.0699 Y2.4536
G01 X4.0802 Y2.4482
G01 X4.1731 Y2.4043
G01 X4.1803 Y2.4014
G01 X4.2033 Y2.3931
G00 Z2.0000
G00 X3.6148 Y5.5099
G01 F60.00
G01 Z-0.1000
G01 F120.00
G01 X5.6308 Y5.5099
G01 X5.6525 Y5.5104
G01 X5.6741 Y5.5120
G01 X5.6956 Y5.5147
G01 X5.7170 Y5.5184
G01 X5.7276 Y5.5206
G01 X5.7381 Y5.5231
G01 X5.7590 Y5.5289
G01 X5.7796 Y5.5357
G01 X5.7998 Y5.5435
G01 X5.8098 Y5.5478
G01 X5.8294 Y5.5571
G01 X5.8485 Y5.5673
G01 X5.8671 Y5.5784
G01 X5.8762 Y5.5843
G01 X5.8939 Y5.5968
G01 X5.9110 Y5.6102
G01 X5.9193 Y5.6171
G01 X5.9354 Y5.6317
G01 X5.9507 Y5.6470
G01 X5.9581 Y5.6550
G01 X5.9722 Y5.6714
G01 X5.9790 Y5.6799
G01 X5.9919 Y5.6973
G01 X6.0040 Y5.7153
G01 X6.0097 Y5.7245
G01 X6.0203 Y5.7434
G01 X6.0301 Y5.7628
G01 X6.0389 Y5.7826
G01 X6.0467 Y5.8028
G01 X6.0502 Y5.8131
G01 X6.0565 Y5.8338
G01 X6.0618 Y5.8548
G01 X6.0660 Y5.8761
G01 X6.0677 Y5.8868
G01 X6.0692 Y5.8975
G01 X6.0713 Y5.9191
G01 X6.0724 Y5.9408
G01 X6.0725 Y7.9676
G01 X6.0720 Y7.9893
G01 X6.0704 Y8.0109
G01 X6.0692 Y8.0217
G01 X6.0660 Y8.0431
G01 X6.0618 Y8.0644
G01 X6.0565 Y8.0854
G01 X6.0502 Y8.1061
G01 X6.0467 Y8.1164
G01 X6.0389 Y8.1366
G01 X6.0301 Y8.1564
G01 X6.0203 Y8.1758
G01 X6.0097 Y8.1947
G01 X5.9981 Y8.2130
G01 X5.9856 Y8.2307
G01 X5.9790 Y8.2393
G01 X5.9653 Y8.2561
G01 X5.9507 Y8.2722
G01 X5.9431 Y8.2799
G01 X5.9274 Y8.2949
G01 X5.9110 Y8.3090
G01 X5.9025 Y8.3158
G01 X5.8851 Y8.3287
G01 X5.8671 Y8.3408
G01 X5.8485 Y8.3519
G01 X5.8294 Y8.3621
G01 X5.8098 Y8.3714
G01 X5.7898 Y8.3797
G01 X5.7694 Y8.3870
G01 X5.7486 Y8.3933
G01 X5.7276 Y8.3986
G01 X5.7170 Y8.4008
G01 X5.6956 Y8.4045
G01 X5.6741 Y8.4072
G01 X5.6525 Y8.4088
G01 X5.6308 Y8.4093
G01 X5.3695 Y8.4093
G01 X5.3695 Y8.7529
G01 X11.5510 Y8.7529
G01 X11.5398 Y8.3538
G01 X11.2795 Y8.3537
G01 X11.2686 Y8.3533
G01 X11.2470 Y8.3517
G01 X11.2255 Y8.3490
G01 X11.2041 Y8.3453
G01 X11.1830 Y8.3406
G01 X11.1725 Y8.3378
G01 X11.1517 Y8.3315
G01 X11.1313 Y8.3242
G01 X11.1113 Y8.3159
G01 X11.0917 Y8.3066
G01 X11.0726 Y8.2964
G01 X11.0540 Y8.2853
G01 X11.0360 Y8.2732
G01 X11.0272 Y8.2669
G01 X11.0101 Y8.2535
G01 X10.9937 Y8.2394
G01 X10.9857 Y8.2320
G01 X10.9780 Y8.2244
G01 X10.9630 Y8.2087
G01 X10.9489 Y8.1923
G01 X10.9421 Y8.1838
G01 X10.9292 Y8.1664
G01 X10.9171 Y8.1484
G01 X10.9114 Y8.1392
G01 X10.9008 Y8.1203
G01 X10.8958 Y8.1107
G01 X10.8865 Y8.0911
G01 X10.8782 Y8.0711
G01 X10.8709 Y8.0507
G01 X10.8676 Y8.0403
G01 X10.8618 Y8.0194
G01 X10.8571 Y7.9983
G01 X10.8534 Y7.9769
G01 X10.8519 Y7.9662
G01 X10.8507 Y7.9554
G01 X10.8491 Y7.9338
G01 X10.8486 Y7.9121
G01 X10.8486 Y6.0071
G01 X10.8491 Y5.9854
G01 X10.8507 Y5.9638
G01 X10.8519 Y5.9530
G01 X10.8551 Y5.9316
G01 X10.8571 Y5.9209
G01 X10.8618 Y5.8998
G01 X10.8676 Y5.8789
G01 X10.8744 Y5.8583
G01 X10.8822 Y5.8381
G01 X10.8910 Y5.8183
G01 X10.9008 Y5.7989
G01 X10.9114 Y5.7800
G01 X10.9230 Y5.7617
G01 X10.9355 Y5.7440
G01 X10.9489 Y5.7269
G01 X10.9630 Y5.7105
G01 X10.9704 Y5.7025
G01 X10.9857 Y5.6872
G01 X11.0018 Y5.6726
G01 X11.0186 Y5.6589
G01 X11.0360 Y5.6460
G01 X11.0540 Y5.6339
G01 X11.0726 Y5.6228
G01 X11.0917 Y5.6126
G01 X11.1113 Y5.6033
G01 X11.1313 Y5.5950
G01 X11.1517 Y5.5877
G01 X11.1621 Y5.5844
G01 X11.1830 Y5.5786
G01 X11.2041 Y5.5739
G01 X11.2255 Y5.5702
G01 X11.2470 Y5.5675
G01 X11.2686 Y5.5659
G01 X11.2795 Y5.5655
G01 X11.4492 Y5.5654
G01 X11.3754 Y5.5107
G01 X11.3583 Y5.4973
G01 X11.3419 Y5.4832
G01 X11.2727 Y5.4204
G01 X11.2570 Y5.4054
G01 X11.2420 Y5.3897
G01 X11.1792 Y5.3205
G01 X11.1651 Y5.3041
G01 X11.1517 Y5.2870
G01 X11.0961 Y5.2119
G01 X11.0836 Y5.1942
G01 X11.0720 Y5.1759
G01 X11.0239 Y5.0957
G01 X11.0132 Y5.0768
G01 X11.0035 Y5.0575
G01 X10.9635 Y4.9730
G01 X10.9547 Y4.9531
G01 X10.9469 Y4.9329
G01 X10.9154 Y4.8449
G01 X10.9086 Y4.8243
G01 X10.9029 Y4.8034
G01 X10.8801 Y4.7127
G01 X10.8754 Y4.6916
G01 X10.8717 Y4.6702
G01 X10.8580 Y4.5778
G01 X10.8553 Y4.5563
G01 X10.8537 Y4.5346
G01 X10.8491 Y4.4413
G01 X10.8486 Y4.4196
G01 X10.8491 Y4.3979
G01 X10.8537 Y4.3046
G01 X10.8544 Y4.2937
G01 X10.8565 Y4.2722
G01 X10.8734 Y4.1583
G01 X10.8754 Y4.1476
G01 X10.8801 Y4.1265
G01 X10.9029 Y4.0358
G01 X10.9086 Y4.0149
G01 X10.9154 Y3.9943
G01 X10.9469 Y3.9063
G01 X10.9507 Y3.8961
G01 X10.9590 Y3.8761
G01 X11.0082 Y3.7720
G01 X11.0132 Y3.7624
G01 X11.0239 Y3.7435
G01 X11.0777 Y3.6541
G01 X11.0897 Y3.6361
G01 X11.0961 Y3.6273
G01 X11.1517 Y3.5522
G01 X11.1651 Y3.5351
G01 X11.1792 Y3.5187
G01 X11.2420 Y3.4495
G01 X11.2570 Y3.4338
G01 X11.2727 Y3.4188
G01 X11.3419 Y3.3560
G01 X11.3583 Y3.3419
G01 X11.3754 Y3.3285
G01 X11.4505 Y3.2729
G01 X11.4682 Y3.2604
G01 X11.4897 Y3.2469
G01 X11.4810 Y2.6263
G01 X5.7931 Y2.6263
G01 X5.8220 Y2.6655
G01 X5.8341 Y2.6835
G01 X5.8906 Y2.7776
G01 X5.8961 Y2.7869
G01 X5.9063 Y2.8060
G01 X5.9534 Y2.9052
G01 X5.9621 Y2.9250
G01 X5.9699 Y2.9453
G01 X6.0068 Y3.0486
G01 X6.0131 Y3.0694
G01 X6.0159 Y3.0799
G01 X6.0399 Y3.1758
G01 X6.0446 Y3.1970
G01 X6.0483 Y3.2183
G01 X6.0629 Y3.3162
G01 X6.0655 Y3.3377
G01 X6.0671 Y3.3593
G01 X6.0724 Y3.4690
G01 X6.0725 Y3.4798
G01 X6.0720 Y3.5015
G01 X6.0671 Y3.6003
G01 X6.0655 Y3.6219
G01 X6.0629 Y3.6434
G01 X6.0483 Y3.7413
G01 X6.0446 Y3.7626
G01 X6.0399 Y3.7838
G01 X6.0159 Y3.8797
G01 X6.0101 Y3.9006
G01 X6.0033 Y3.9212
G01 X5.9699 Y4.0143
G01 X5.9621 Y4.0346
G01 X5.9534 Y4.0544
G01 X5.9111 Y4.1438
G01 X5.9013 Y4.1632
G01 X5.8906 Y4.1820
G01 X5.8341 Y4.2761
G01 X5.8282 Y4.2852
G01 X5.8157 Y4.3029
G01 X5.7568 Y4.3824
G01 X5.7434 Y4.3995
G01 X5.7293 Y4.4159
G01 X5.6628 Y4.4892
G01 X5.6479 Y4.5049
G01 X5.6322 Y4.5198
G01 X5.5589 Y4.5863
G01 X5.5425 Y4.6004
G01 X5.5254 Y4.6138
G01 X5.4459 Y4.6727
G01 X5.4282 Y4.6852
G01 X5.4099 Y4.6968
G01 X5.3250 Y4.7476
G01 X5.3062 Y4.7583
G01 X5.2868 Y4.7681
G01 X5.1974 Y4.8104
G01 X5.1776 Y4.8191
G01 X5.1573 Y4.8269
G01 X5.0642 Y4.8603
G01 X5.0436 Y4.8671
G01 X5.0227 Y4.8729
G01 X4.9268 Y4.8969
G01 X4.9056 Y4.9016
G01 X4.8843 Y4.9053
G01 X4.7864 Y4.9199
G01 X4.7649 Y4.9225
G01 X4.7433 Y4.9241
G01 X4.6445 Y4.9290
G01 X4.6228 Y4.9295
G01 X4.6011 Y4.9290
G01 X4.5023 Y4.9241
G01 X4.4807 Y4.9225
G01 X4.4592 Y4.9199
G01 X4.3506 Y4.9036
G01 X4.3294 Y4.8994
G01 X4.3188 Y4.8969
G01 X4.2229 Y4.8729
G01 X4.2020 Y4.8671
G01 X4.1814 Y4.8603
G01 X4.0883 Y4.8269
G01 X4.0781 Y4.8232
G01 X4.0581 Y4.8149
G01 X3.9588 Y4.7681
G01 X3.9394 Y4.7583
G01 X3.9206 Y4.7476
G01 X3.8357 Y4.6968
G01 X3.8174 Y4.6852
G01 X3.7997 Y4.6727
G01 X3.7202 Y4.6138
G01 X3.7031 Y4.6004
G01 X3.6867 Y4.5863
G01 X3.6134 Y4.5198
G01 X3.5977 Y4.5049
G01 X3.5828 Y4.4892
G01 X3.5163 Y4.4159
G01 X3.5091 Y4.4078
G01 X3.4954 Y4.3910
G01 X3.4299 Y4.3029
G01 X3.4174 Y4.2852
G01 X3.4058 Y4.2669
G01 X3.3550 Y4.1820
G01 X3.3443 Y4.1632
G01 X3.3345 Y4.1438
G01 X3.2922 Y4.0544
G01 X3.2835 Y4.0346
G01 X3.2757 Y4.0143
G01 X3.2423 Y3.9212
G01 X3.2355 Y3.9006
G01 X3.2297 Y3.8797
G01 X3.2057 Y3.7838
G01 X3.2010 Y3.7626
G01 X3.1973 Y3.7413
G01 X3.1813 Y3.6327
G01 X3.1801 Y3.6219
G01 X3.1785 Y3.6003
G01 X3.1732 Y3.4906
G01 X3.1731 Y3.4798
G01 X3.1736 Y3.4581
G01 X3.1785 Y3.3593
G01 X3.1801 Y3.3377
G01 X3.1827 Y3.3162
G01 X3.1973 Y3.2183
G01 X3.2010 Y3.1970
G01 X3.2057 Y3.1758
G01 X3.2297 Y3.0799
G01 X3.2355 Y3.0590
G01 X3.2423 Y3.0384
G01 X3.2757 Y2.9453
G01 X3.2835 Y2.9250
G01 X3.2877 Y2.9151
G01 X3.3345 Y2.8158
G01 X3.3443 Y2.7964
G01 X3.3550 Y2.7776
G01 X3.4058 Y2.6927
G01 X3.4174 Y2.6744
G01 X3.4299 Y2.6567
G01 X3.4888 Y2.5772
G01 X3.5022 Y2.5601
G01 X3.5163 Y2.5437
G01 X3.5828 Y2.4704
G01 X3.5977 Y2.4547
G01 X3.6134 Y2.4398
G01 X3.6948 Y2.3661
G01 X3.7031 Y2.3592
G01 X3.7202 Y2.3458
G01 X3.7997 Y2.2869
G01 X3.8174 Y2.2744
G01 X3.8357 Y2.2628
G01 X3.9305 Y2.2062
G01 X3.9538 Y1.8330
G01 X3.9559 Y1.8064
G01 X3.9604 Y1.7709
G01 X3.9667 Y1.7339
G01 X3.9746 Y1.6991
G01 X3.9801 Y1.6781
G01 X3.9878 Y1.6525
G01 X3.9957 Y1.6289
G01 X4.0033 Y1.6086
G01 X4.0135 Y1.5839
G01 X4.0237 Y1.5612
G01 X4.0332 Y1.5417
G01 X4.0457 Y1.5181
G01 X4.0582 Y1.4965
G01 X4.0782 Y1.4648
G01 X4.1053 Y1.4269
G01 X4.1288 Y1.3976
G01 X4.1525 Y1.3709
G01 X4.1710 Y1.3516
G01 X4.1970 Y1.3270
G01 X4.2253 Y1.3024
G01 X4.2535 Y1.2805
G01 X4.2842 Y1.2588
G01 X4.3144 Y1.2397
G01 X4.3470 Y1.2211
G01 X4.3790 Y1.2051
G01 X4.4133 Y1.1898
G01 X4.4466 Y1.1769
G01 X4.4823 Y1.1651
G01 X4.5167 Y1.1556
G01 X4.5533 Y1.1473
G01 X4.5886 Y1.1412
G01 X4.6258 Y1.1365
G01 X4.6615 Y1.1339
G01 X4.6990 Y1.1330
G01 X35.1536 Y1.1330
G01 X35.1753 Y1.1335
G01 X35.2052 Y1.1350
G01 X35.2268 Y1.1365
G01 X35.2376 Y1.1377
G01 X35.2886 Y1.1453
G01 X35.3099 Y1.1495
G01 X35.3204 Y1.1520
G01 X35.3494 Y1.1593
G01 X35.3703 Y1.1651
G01 X35.3909 Y1.1719
G01 X35.4191 Y1.1820
G01 X35.4393 Y1.1898
G01 X35.4493 Y1.1941
G01 X35.4959 Y1.2161
G01 X35.5056 Y1.2211
G01 X35.5244 Y1.2318
G01 X35.5501 Y1.2472
G01 X35.5684 Y1.2588
G01 X35.5861 Y1.2713
G01 X35.6188 Y1.2957
G01 X35.6356 Y1.3094
G01 X35.6437 Y1.3166
G01 X35.6659 Y1.3367
G01 X35.6816 Y1.3516
G01 X35.6965 Y1.3673
G01 X35.7238 Y1.3976
G01 X35.7375 Y1.4144
G01 X35.7441 Y1.4230
G01 X35.7619 Y1.4471
G01 X35.7744 Y1.4648
G01 X35.7860 Y1.4831
G01 X35.8069 Y1.5181
G01 X35.8121 Y1.5276
G01 X35.8218 Y1.5470
G01 X35.8346 Y1.5740
G01 X35.8434 Y1.5939
G01 X35.8512 Y1.6141
G01 X35.8648 Y1.6525
G01 X35.8711 Y1.6733
G01 X35.8739 Y1.6838
G01 X35.8812 Y1.7128
G01 X35.8859 Y1.7339
G01 X35.8896 Y1.7553
G01 X35.8955 Y1.7956
G01 X35.8976 Y1.8172
G01 X35.8982 Y1.8280
G01 X35.8997 Y1.8579
G01 X35.9002 Y1.8796
G01 X35.9003 Y8.7529
G01 X41.5462 Y8.7529
G01 X41.5636 Y8.7250
G01 X41.5761 Y8.7073
G01 X41.6317 Y8.6322
G01 X41.6383 Y8.6236
G01 X41.6521 Y8.6068
G01 X41.7220 Y8.5295
G01 X41.7370 Y8.5138
G01 X41.7527 Y8.4988
G01 X41.8300 Y8.4289
G01 X41.8383 Y8.4219
G01 X41.8554 Y8.4085
G01 X41.9305 Y8.3529
G01 X41.9482 Y8.3404
G01 X41.9665 Y8.3288
G01 X42.0467 Y8.2807
G01 X42.0656 Y8.2700
G01 X42.0849 Y8.2603
G01 X42.1694 Y8.2203
G01 X42.1893 Y8.2115
G01 X42.2095 Y8.2037
G01 X42.2975 Y8.1722
G01 X42.3181 Y8.1654
G01 X42.3390 Y8.1597
G01 X42.4297 Y8.1369
G01 X42.4508 Y8.1322
G01 X42.4722 Y8.1285
G01 X42.5646 Y8.1148
G01 X42.5861 Y8.1121
G01 X42.6078 Y8.1105
G01 X42.7011 Y8.1059
G01 X42.7228 Y8.1054
G01 X42.7445 Y8.1059
G01 X42.8378 Y8.1105
G01 X42.8595 Y8.1121
G01 X42.8810 Y8.1148
G01 X42.9734 Y8.1285
G01 X42.9948 Y8.1322
G01 X43.0054 Y8.1344
G01 X43.1066 Y8.1597
G01 X43.1275 Y8.1654
G01 X43.1481 Y8.1722
G01 X43.2361 Y8.2037
G01 X43.2563 Y8.2115
G01 X43.2762 Y8.2203
G01 X43.3607 Y8.2603
G01 X43.3800 Y8.2700
G01 X43.3989 Y8.2807
G01 X43.4791 Y8.3288
G01 X43.4974 Y8.3404
G01 X43.5151 Y8.3529
G01 X43.5902 Y8.4085
G01 X43.6073 Y8.4219
G01 X43.6237 Y8.4360
G01 X43.6929 Y8.4988
G01 X43.7086 Y8.5138
G01 X43.7236 Y8.5295
G01 X43.7864 Y8.5987
G01 X43.8005 Y8.6151
G01 X43.8139 Y8.6322
G01 X43.8695 Y8.7073
G01 X43.8820 Y8.7250
G01 X43.8936 Y8.7433
G01 X43.9417 Y8.8235
G01 X43.9524 Y8.8424
G01 X43.9621 Y8.8617
G01 X44.0021 Y8.9462
G01 X44.0109 Y8.9661
G01 X44.0187 Y8.9863
G01 X44.0502 Y9.0743
G01 X44.0570 Y9.0949
G01 X44.0627 Y9.1158
G01 X44.0855 Y9.2065
G01 X44.0902 Y9.2276
G01 X44.0939 Y9.2490
G01 X44.1076 Y9.3414
G01 X44.1103 Y9.3629
G01 X44.1119 Y9.3846
G01 X44.1165 Y9.4779
G01 X44.1170 Y9.4996
G01 X44.1165 Y9.5213
G01 X44.1119 Y9.6146
G01 X44.1103 Y9.6363
G01 X44.1076 Y9.6578
G01 X44.0939 Y9.7502
G01 X44.0902 Y9.7716
G01 X44.0855 Y9.7927
G01 X44.0627 Y9.8834
G01 X44.0570 Y9.9043
G01 X44.0502 Y9.9249
G01 X44.0187 Y10.0129
G01 X44.0109 Y10.0331
G01 X44.0021 Y10.0530
G01 X43.9621 Y10.1375
G01 X43.9524 Y10.1568
G01 X43.9417 Y10.1757
G01 X43.8936 Y10.2559
G01 X43.8820 Y10.2742
G01 X43.8695 Y10.2919
G01 X43.8139 Y10.3670
G01 X43.8005 Y10.3841
G01 X43.7864 Y10.4005
G01 X43.7236 Y10.4697
G01 X43.7086 Y10.4854
G01 X43.6929 Y10.5004
G01 X43.6237 Y10.5632
G01 X43.6073 Y10.5773
G01 X43.5902 Y10.5907
G01 X43.5151 Y10.6463
G01 X43.4974 Y10.6588
G01 X43.4791 Y10.6704
G01 X43.3989 Y10.7185
G01 X43.3800 Y10.7292
G01 X43.3607 Y10.7389
G01 X43.2762 Y10.7789
G01 X43.2563 Y10.7877
G01 X43.2361 Y10.7955
G01 X43.1481 Y10.8270
G01 X43.1275 Y10.8338
G01 X43.1066 Y10.8395
G01 X43.0159 Y10.8623
G01 X42.9948 Y10.8670
G01 X42.9734 Y10.8707
G01 X42.8810 Y10.8844
G01 X42.8595 Y10.8871
G01 X42.8378 Y10.8887
G01 X42.7445 Y10.8933
G01 X42.7336 Y10.8937
G01 X42.7120 Y10.8937
G01 X42.5969 Y10.8880
G01 X42.5754 Y10.8859
G01 X42.5646 Y10.8844
G01 X42.4722 Y10.8707
G01 X42.4508 Y10.8670
G01 X42.4297 Y10.8623
G01 X42.3390 Y10.8395
G01 X42.3181 Y10.8338
G01 X42.2975 Y10.8270
G01 X42.2095 Y10.7955
G01 X42.1893 Y10.7877
G01 X42.1694 Y10.7789
G01 X42.0849 Y10.7389
G01 X42.0656 Y10.7292
G01 X42.0561 Y10.7239
G01 X41.9665 Y10.6704
G01 X41.9482 Y10.6588
G01 X41.9305 Y10.6463
G01 X41.8554 Y10.5907
G01 X41.8468 Y10.5841
G01 X41.8300 Y10.5703
G01 X41.7447 Y10.4930
G01 X41.7294 Y10.4777
G01 X41.7220 Y10.4697
G01 X41.6592 Y10.4005
G01 X41.6451 Y10.3841
G01 X41.6317 Y10.3670
G01 X41.5697 Y10.2831
G01 X41.5577 Y10.2651
G01 X41.5462 Y10.2463
G01 X35.9002 Y10.2463
G01 X35.9002 Y14.5796
G01 X35.8997 Y14.6013
G01 X35.8982 Y14.6312
G01 X35.8967 Y14.6528
G01 X35.8955 Y14.6636
G01 X35.8896 Y14.7039
G01 X35.8859 Y14.7253
G01 X35.8812 Y14.7464
G01 X35.8711 Y14.7859
G01 X35.8648 Y14.8067
G01 X35.8512 Y14.8451
G01 X35.8434 Y14.8653
G01 X35.8346 Y14.8852
G01 X35.8171 Y14.9219
G01 X35.8069 Y14.9411
G01 X35.7860 Y14.9761
G01 X35.7744 Y14.9944
G01 X35.7619 Y15.0121
G01 X35.7375 Y15.0448
G01 X35.7238 Y15.0616
G01 X35.6965 Y15.0919
G01 X35.6816 Y15.1076
G01 X35.6659 Y15.1225
G01 X35.6356 Y15.1498
G01 X35.6188 Y15.1635
G01 X35.5861 Y15.1879
G01 X35.5684 Y15.2004
G01 X35.5501 Y15.2120
G01 X35.5151 Y15.2329
G01 X35.5056 Y15.2381
G01 X35.4862 Y15.2478
G01 X35.4493 Y15.2651
G01 X35.4293 Y15.2734
G01 X35.3909 Y15.2873
G01 X35.3703 Y15.2941
G01 X35.3494 Y15.2999
G01 X35.3099 Y15.3097
G01 X35.2886 Y15.3139
G01 X35.2779 Y15.3156
G01 X35.2483 Y15.3200
G01 X35.2268 Y15.3227
G01 X35.2052 Y15.3242
G01 X35.1753 Y15.3257
G01 X35.1536 Y15.3262
G01 X20.6349 Y15.3263
G01 X20.6349 Y15.9587
G01 X20.6551 Y15.9729
G01 X20.7302 Y16.0285
G01 X20.7473 Y16.0419
G01 X20.7637 Y16.0560
G01 X20.8329 Y16.1188
G01 X20.8486 Y16.1338
G01 X20.8636 Y16.1495
G01 X20.9335 Y16.2268
G01 X20.9405 Y16.2351
G01 X20.9539 Y16.2522
G01 X21.0095 Y16.3273
G01 X21.0159 Y16.3361
G01 X21.0279 Y16.3541
G01 X21.0817 Y16.4435
G01 X21.0924 Y16.4624
G01 X21.1021 Y16.4817
G01 X21.1328 Y16.5466
G01 X21.1635 Y16.4817
G01 X21.1732 Y16.4624
G01 X21.1839 Y16.4435
G01 X21.2320 Y16.3633
G01 X21.2436 Y16.3450
G01 X21.2561 Y16.3273
G01 X21.3117 Y16.2522
G01 X21.3251 Y16.2351
G01 X21.3392 Y16.2187
G01 X21.4094 Y16.1415
G01 X21.4247 Y16.1262
G01 X21.4327 Y16.1188
G01 X21.5019 Y16.0560
G01 X21.5183 Y16.0419
G01 X21.5354 Y16.0285
G01 X21.6105 Y15.9729
G01 X21.6282 Y15.9604
G01 X21.6465 Y15.9488
G01 X21.7267 Y15.9007
G01 X21.7361 Y15.8953
G01 X21.7552 Y15.8850
G01 X21.8494 Y15.8403
G01 X21.8693 Y15.8315
G01 X21.8895 Y15.8237
G01 X21.9775 Y15.7922
G01 X21.9981 Y15.7854
G01 X22.0190 Y15.7797
G01 X22.1097 Y15.7569
G01 X22.1308 Y15.7522
G01 X22.1522 Y15.7485
G01 X22.2446 Y15.7348
G01 X22.2661 Y15.7321
G01 X22.2878 Y15.7305
G01 X22.3920 Y15.7255
G01 X22.4136 Y15.7255
G01 X22.4245 Y15.7259
G01 X22.5178 Y15.7305
G01 X22.5395 Y15.7321
G01 X22.5610 Y15.7348
G01 X22.6534 Y15.7485
G01 X22.6748 Y15.7522
G01 X22.6959 Y15.7569
G01 X22.7866 Y15.7797
G01 X22.8075 Y15.7854
G01 X22.8281 Y15.7922
G01 X22.9161 Y15.8237
G01 X22.9363 Y15.8315
G01 X22.9562 Y15.8403
G01 X23.0407 Y15.8803
G01 X23.0600 Y15.8900
G01 X23.0789 Y15.9007
G01 X23.1591 Y15.9488
G01 X23.1683 Y15.9545
G01 X23.1863 Y15.9665
G01 X23.2788 Y16.0351
G01 X23.2956 Y16.0489
G01 X23.3037 Y16.0560
G01 X23.3729 Y16.1188
G01 X23.3886 Y16.1338
G01 X23.4036 Y16.1495
G01 X23.4664 Y16.2187
G01 X23.4805 Y16.2351
G01 X23.4873 Y16.2436
G01 X23.5559 Y16.3361
G01 X23.5679 Y16.3541
G01 X23.5736 Y16.3633
G01 X23.6217 Y16.4435
G01 X23.6324 Y16.4624
G01 X23.6421 Y16.4817
G01 X23.6728 Y16.5466
G01 X23.7035 Y16.4817
G01 X23.7132 Y16.4624
G01 X23.7239 Y16.4435
G01 X23.7720 Y16.3633
G01 X23.7836 Y16.3450
G01 X23.7961 Y16.3273
G01 X23.8517 Y16.2522
G01 X23.8651 Y16.2351
G01 X23.8792 Y16.2187
G01 X23.9420 Y16.1495
G01 X23.9570 Y16.1338
G01 X23.9727 Y16.1188
G01 X24.0419 Y16.0560
G01 X24.0500 Y16.0489
G01 X24.0668 Y16.0351
G01 X24.1505 Y15.9729
G01 X24.1682 Y15.9604
G01 X24.1865 Y15.9488
G01 X24.2761 Y15.8953
G01 X24.2952 Y15.8850
G01 X24.3049 Y15.8803
G01 X24.3894 Y15.8403
G01 X24.4093 Y15.8315
G01 X24.4295 Y15.8237
G01 X24.5175 Y15.7922
G01 X24.5381 Y15.7854
G01 X24.5590 Y15.7797
G01 X24.6497 Y15.7569
G01 X24.6708 Y15.7522
G01 X24.6922 Y15.7485
G01 X24.7846 Y15.7348
G01 X24.8061 Y15.7321
G01 X24.8278 Y15.7305
G01 X24.9211 Y15.7259
G01 X24.9428 Y15.7254
G01 X24.9645 Y15.7259
G01 X25.0578 Y15.7305
G01 X25.0795 Y15.7321
G01 X25.1010 Y15.7348
G01 X25.1934 Y15.7485
G01 X25.2148 Y15.7522
G01 X25.2359 Y15.7569
G01 X25.3266 Y15.7797
G01 X25.3475 Y15.7854
G01 X25.3681 Y15.7922
G01 X25.4561 Y15.8237
G01 X25.4763 Y15.8315
G01 X25.4962 Y15.8403
G01 X25.5807 Y15.8803
G01 X25.6000 Y15.8900
G01 X25.6189 Y15.9007
G01 X25.6991 Y15.9488
G01 X25.7174 Y15.9604
G01 X25.7263 Y15.9665
G01 X25.8102 Y16.0285
G01 X25.8273 Y16.0419
G01 X25.8437 Y16.0560
G01 X25.9129 Y16.1188
G01 X25.9286 Y16.1338
G01 X25.9436 Y16.1495
G01 X26.0064 Y16.2187
G01 X26.0205 Y16.2351
G01 X26.0339 Y16.2522
G01 X26.0895 Y16.3273
G01 X26.0959 Y16.3361
G01 X26.1079 Y16.3541
G01 X26.1617 Y16.4435
G01 X26.1724 Y16.4624
G01 X26.1821 Y16.4817
G01 X26.2128 Y16.5466
G01 X26.2435 Y16.4817
G01 X26.2532 Y16.4624
G01 X26.2639 Y16.4435
G01 X26.3120 Y16.3633
G01 X26.3236 Y16.3450
G01 X26.3361 Y16.3273
G01 X26.3917 Y16.2522
G01 X26.4051 Y16.2351
G01 X26.4192 Y16.2187
G01 X26.4820 Y16.1495
G01 X26.4970 Y16.1338
G01 X26.5127 Y16.1188
G01 X26.5819 Y16.0560
G01 X26.5983 Y16.0419
G01 X26.6068 Y16.0351
G01 X26.6905 Y15.9729
G01 X26.7082 Y15.9604
G01 X26.7265 Y15.9488
G01 X26.8067 Y15.9007
G01 X26.8256 Y15.8900
G01 X26.8449 Y15.8803
G01 X26.9393 Y15.8358
G01 X26.9593 Y15.8275
G01 X26.9695 Y15.8237
G01 X27.0575 Y15.7922
G01 X27.0781 Y15.7854
G01 X27.0990 Y15.7797
G01 X27.1897 Y15.7569
G01 X27.2108 Y15.7522
G01 X27.2322 Y15.7485
G01 X27.3246 Y15.7348
G01 X27.3461 Y15.7321
G01 X27.3678 Y15.7305
G01 X27.4611 Y15.7259
G01 X27.4828 Y15.7254
G01 X27.5045 Y15.7259
G01 X27.6087 Y15.7312
G01 X27.6195 Y15.7321
G01 X27.6410 Y15.7348
G01 X27.7334 Y15.7485
G01 X27.7548 Y15.7522
G01 X27.7759 Y15.7569
G01 X27.8666 Y15.7797
G01 X27.8875 Y15.7854
G01 X27.9081 Y15.7922
G01 X27.9961 Y15.8237
G01 X28.0163 Y15.8315
G01 X28.0362 Y15.8403
G01 X28.1207 Y15.8803
G01 X28.1400 Y15.8900
G01 X28.1589 Y15.9007
G01 X28.2391 Y15.9488
G01 X28.2574 Y15.9604
G01 X28.2663 Y15.9665
G01 X28.3502 Y16.0285
G01 X28.3673 Y16.0419
G01 X28.3837 Y16.0560
G01 X28.4529 Y16.1188
G01 X28.4686 Y16.1338
G01 X28.4836 Y16.1495
G01 X28.5464 Y16.2187
G01 X28.5605 Y16.2351
G01 X28.5739 Y16.2522
G01 X28.6295 Y16.3273
G01 X28.6420 Y16.3450
G01 X28.6479 Y16.3541
G01 X28.7017 Y16.4435
G01 X28.7124 Y16.4624
G01 X28.7221 Y16.4817
G01 X28.7528 Y16.5466
G01 X28.7835 Y16.4817
G01 X28.7932 Y16.4624
G01 X28.8039 Y16.4435
G01 X28.8520 Y16.3633
G01 X28.8636 Y16.3450
G01 X28.8761 Y16.3273
G01 X28.9317 Y16.2522
G01 X28.9451 Y16.2351
G01 X28.9592 Y16.2187
G01 X29.0220 Y16.1495
G01 X29.0370 Y16.1338
G01 X29.0527 Y16.1188
G01 X29.1219 Y16.0560
G01 X29.1383 Y16.0419
G01 X29.1468 Y16.0351
G01 X29.2305 Y15.9729
G01 X29.2482 Y15.9604
G01 X29.2665 Y15.9488
G01 X29.3467 Y15.9007
G01 X29.3656 Y15.8900
G01 X29.3849 Y15.8803
G01 X29.4694 Y15.8403
G01 X29.4793 Y15.8358
G01 X29.4993 Y15.8275
G01 X29.5975 Y15.7922
G01 X29.6181 Y15.7854
G01 X29.6390 Y15.7797
G01 X29.7402 Y15.7544
G01 X29.7508 Y15.7522
G01 X29.7722 Y15.7485
G01 X29.8646 Y15.7348
G01 X29.8861 Y15.7321
G01 X29.9078 Y15.7305
G01 X30.0011 Y15.7259
G01 X30.0228 Y15.7254
G01 X30.0445 Y15.7259
G01 X30.1378 Y15.7305
G01 X30.1595 Y15.7321
G01 X30.1810 Y15.7348
G01 X30.2734 Y15.7485
G01 X30.2948 Y15.7522
G01 X30.3159 Y15.7569
G01 X30.4066 Y15.7797
G01 X30.4275 Y15.7854
G01 X30.4481 Y15.7922
G01 X30.5361 Y15.8237
G01 X30.5563 Y15.8315
G01 X30.5762 Y15.8403
G01 X30.6607 Y15.8803
G01 X30.6800 Y15.8900
G01 X30.6989 Y15.9007
G01 X30.7791 Y15.9488
G01 X30.7974 Y15.9604
G01 X30.8063 Y15.9665
G01 X30.8902 Y16.0285
G01 X30.9073 Y16.0419
G01 X30.9237 Y16.0560
G01 X30.9929 Y16.1188
G01 X31.0086 Y16.1338
G01 X31.0236 Y16.1495
G01 X31.0864 Y16.2187
G01 X31.1005 Y16.2351
G01 X31.1139 Y16.2522
G01 X31.1695 Y16.3273
G01 X31.1759 Y16.3361
G01 X31.1879 Y16.3541
G01 X31.2417 Y16.4435
G01 X31.2524 Y16.4624
G01 X31.2621 Y16.4817
G01 X31.2928 Y16.5466
G01 X31.3235 Y16.4817
G01 X31.3332 Y16.4624
G01 X31.3439 Y16.4435
G01 X31.3977 Y16.3541
G01 X31.4097 Y16.3361
G01 X31.4161 Y16.3273
G01 X31.4717 Y16.2522
G01 X31.4783 Y16.2436
G01 X31.4921 Y16.2268
G01 X31.5620 Y16.1495
G01 X31.5770 Y16.1338
G01 X31.5927 Y16.1188
G01 X31.6619 Y16.0560
G01 X31.6783 Y16.0419
G01 X31.6954 Y16.0285
G01 X31.7705 Y15.9729
G01 X31.7882 Y15.9604
G01 X31.7973 Y15.9545
G01 X31.8867 Y15.9007
G01 X31.9056 Y15.8900
G01 X31.9249 Y15.8803
G01 X32.0094 Y15.8403
G01 X32.0293 Y15.8315
G01 X32.0495 Y15.8237
G01 X32.1375 Y15.7922
G01 X32.1581 Y15.7854
G01 X32.1790 Y15.7797
G01 X32.2697 Y15.7569
G01 X32.2908 Y15.7522
G01 X32.3122 Y15.7485
G01 X32.4046 Y15.7348
G01 X32.4261 Y15.7321
G01 X32.4478 Y15.7305
G01 X32.5520 Y15.7255
G01 X32.5736 Y15.7255
G01 X32.5845 Y15.7259
G01 X32.6778 Y15.7305
G01 X32.6995 Y15.7321
G01 X32.7210 Y15.7348
G01 X32.8134 Y15.7485
G01 X32.8348 Y15.7522
G01 X32.8559 Y15.7569
G01 X32.9466 Y15.7797
G01 X32.9675 Y15.7854
G01 X32.9881 Y15.7922
G01 X33.0761 Y15.8237
G01 X33.0963 Y15.8315
G01 X33.1162 Y15.8403
G01 X33.2007 Y15.8803
G01 X33.2200 Y15.8900
G01 X33.2389 Y15.9007
G01 X33.3191 Y15.9488
G01 X33.3374 Y15.9604
G01 X33.3551 Y15.9729
G01 X33.4302 Y16.0285
G01 X33.4473 Y16.0419
G01 X33.4637 Y16.0560
G01 X33.5329 Y16.1188
G01 X33.5486 Y16.1338
G01 X33.5636 Y16.1495
G01 X33.6335 Y16.2268
G01 X33.6473 Y16.2436
G01 X33.6539 Y16.2522
G01 X33.7095 Y16.3273
G01 X33.7220 Y16.3450
G01 X33.7279 Y16.3541
G01 X33.7817 Y16.4435
G01 X33.7924 Y16.4624
G01 X33.8021 Y16.4817
G01 X33.8328 Y16.5466
G01 X33.8635 Y16.4817
G01 X33.8732 Y16.4624
G01 X33.8839 Y16.4435
G01 X33.9320 Y16.3633
G01 X33.9436 Y16.3450
G01 X33.9561 Y16.3273
G01 X34.0117 Y16.2522
G01 X34.0251 Y16.2351
G01 X34.0392 Y16.2187
G01 X34.1020 Y16.1495
G01 X34.1170 Y16.1338
G01 X34.1327 Y16.1188
G01 X34.2019 Y16.0560
G01 X34.2183 Y16.0419
G01 X34.2268 Y16.0351
G01 X34.3105 Y15.9729
G01 X34.3282 Y15.9604
G01 X34.3465 Y15.9488
G01 X34.4361 Y15.8953
G01 X34.4552 Y15.8850
G01 X34.4649 Y15.8803
G01 X34.5494 Y15.8403
G01 X34.5693 Y15.8315
G01 X34.5895 Y15.8237
G01 X34.6775 Y15.7922
G01 X34.6981 Y15.7854
G01 X34.7190 Y15.7797
G01 X34.8097 Y15.7569
G01 X34.8308 Y15.7522
G01 X34.8522 Y15.7485
G01 X34.9446 Y15.7348
G01 X34.9661 Y15.7321
G01 X34.9878 Y15.7305
G01 X35.0811 Y15.7259
G01 X35.1028 Y15.7254
G01 X35.1245 Y15.7259
G01 X35.2178 Y15.7305
G01 X35.2395 Y15.7321
G01 X35.2610 Y15.7348
G01 X35.3534 Y15.7485
G01 X35.3748 Y15.7522
G01 X35.3959 Y15.7569
G01 X35.4866 Y15.7797
G01 X35.5075 Y15.7854
G01 X35.5281 Y15.7922
G01 X35.6161 Y15.8237
G01 X35.6363 Y15.8315
G01 X35.6562 Y15.8403
G01 X35.7407 Y15.8803
G01 X35.7504 Y15.8850
G01 X35.7695 Y15.8953
G01 X35.8683 Y15.9545
G01 X35.8774 Y15.9604
G01 X35.8951 Y15.9729
G01 X35.9702 Y16.0285
G01 X35.9873 Y16.0419
G01 X36.0037 Y16.0560
G01 X36.0729 Y16.1188
G01 X36.0886 Y16.1338
G01 X36.1036 Y16.1495
G01 X36.1664 Y16.2187
G01 X36.1805 Y16.2351
G01 X36.1873 Y16.2436
G01 X36.2559 Y16.3361
G01 X36.2679 Y16.3541
G01 X36.2794 Y16.3730
G01 X37.6936 Y16.3730
G01 X37.7153 Y16.3735
G01 X37.7560 Y16.3756
G01 X37.7668 Y16.3765
G01 X37.7883 Y16.3792
G01 X37.8179 Y16.3836
G01 X37.8393 Y16.3873
G01 X37.8604 Y16.3920
G01 X37.8894 Y16.3993
G01 X37.9103 Y16.4051
G01 X37.9207 Y16.4084
G01 X37.9693 Y16.4258
G01 X37.9793 Y16.4298
G01 X37.9992 Y16.4386
G01 X38.0262 Y16.4514
G01 X38.0456 Y16.4611
G01 X38.0644 Y16.4718
G01 X38.0901 Y16.4872
G01 X38.0993 Y16.4929
G01 X38.1174 Y16.5049
G01 X38.1588 Y16.5357
G01 X38.1756 Y16.5494
G01 X38.1837 Y16.5566
G01 X38.2059 Y16.5767
G01 X38.2216 Y16.5916
G01 X40.5429 Y18.9129
G01 X41.5462 Y18.9129
G01 X41.5577 Y18.8941
G01 X41.5697 Y18.8761
G01 X41.6383 Y18.7836
G01 X41.6521 Y18.7668
G01 X41.6592 Y18.7587
G01 X41.7294 Y18.6815
G01 X41.7447 Y18.6662
G01 X41.7527 Y18.6588
G01 X41.8219 Y18.5960
G01 X41.8383 Y18.5819
G01 X41.8554 Y18.5685
G01 X41.9393 Y18.5065
G01 X41.9573 Y18.4945
G01 X41.9665 Y18.4888
G01 X42.0467 Y18.4407
G01 X42.0656 Y18.4300
G01 X42.0849 Y18.4203
G01 X42.1694 Y18.3803
G01 X42.1893 Y18.3715
G01 X42.2095 Y18.3637
G01 X42.2975 Y18.3322
G01 X42.3181 Y18.3254
G01 X42.3390 Y18.3197
G01 X42.4297 Y18.2969
G01 X42.4508 Y18.2922
G01 X42.4722 Y18.2885
G01 X42.5646 Y18.2748
G01 X42.5861 Y18.2721
G01 X42.6078 Y18.2705
G01 X42.7011 Y18.2659
G01 X42.7228 Y18.2654
G01 X42.7445 Y18.2659
G01 X42.8378 Y18.2705
G01 X42.8595 Y18.2721
G01 X42.8810 Y18.2748
G01 X42.9734 Y18.2885
G01 X42.9948 Y18.2922
G01 X43.0159 Y18.2969
G01 X43.1066 Y18.3197
G01 X43.1275 Y18.3254
G01 X43.1481 Y18.3322
G01 X43.2361 Y18.3637
G01 X43.2563 Y18.3715
G01 X43.2762 Y18.3803
G01 X43.3607 Y18.4203
G01 X43.3800 Y18.4300
G01 X43.3989 Y18.4407
G01 X43.4791 Y18.4888
G01 X43.4974 Y18.5004
G01 X43.5151 Y18.5129
G01 X43.5902 Y18.5685
G01 X43.6073 Y18.5819
G01 X43.6237 Y18.5960
G01 X43.6929 Y18.6588
G01 X43.7086 Y18.6738
G01 X43.7236 Y18.6895
G01 X43.7864 Y18.7587
G01 X43.8005 Y18.7751
G01 X43.8139 Y18.7922
G01 X43.8695 Y18.8673
G01 X43.8820 Y18.8850
G01 X43.8936 Y18.9033
G01 X43.9417 Y18.9835
G01 X43.9524 Y19.0024
G01 X43.9621 Y19.0217
G01 X44.0021 Y19.1062
G01 X44.0109 Y19.1261
G01 X44.0187 Y19.1463
G01 X44.0502 Y19.2343
G01 X44.0570 Y19.2549
G01 X44.0627 Y19.2758
G01 X44.0855 Y19.3665
G01 X44.0902 Y19.3876
G01 X44.0939 Y19.4090
G01 X44.1091 Y19.5122
G01 X44.1112 Y19.5337
G01 X44.1119 Y19.5446
G01 X44.1165 Y19.6379
G01 X44.1170 Y19.6596
G01 X44.1165 Y19.6813
G01 X44.1119 Y19.7746
G01 X44.1103 Y19.7963
G01 X44.1076 Y19.8178
G01 X44.0939 Y19.9102
G01 X44.0902 Y19.9316
G01 X44.0855 Y19.9527
G01 X44.0627 Y20.0434
G01 X44.0570 Y20.0643
G01 X44.0502 Y20.0849
G01 X44.0187 Y20.1729
G01 X44.0109 Y20.1931
G01 X44.0021 Y20.2130
G01 X43.9621 Y20.2975
G01 X43.9524 Y20.3168
G01 X43.9417 Y20.3357
G01 X43.8936 Y20.4159
G01 X43.8879 Y20.4251
G01 X43.8759 Y20.4431
G01 X43.8139 Y20.5270
G01 X43.8005 Y20.5441
G01 X43.7864 Y20.5605
G01 X43.7236 Y20.6297
G01 X43.7086 Y20.6454
G01 X43.6929 Y20.6604
G01 X43.6237 Y20.7232
G01 X43.6073 Y20.7373
G01 X43.5902 Y20.7507
G01 X43.5063 Y20.8127
G01 X43.4883 Y20.8247
G01 X43.4695 Y20.8362
G01 X43.4695 Y21.6843
G01 X43.7228 Y21.6843
G01 X43.7445 Y21.6848
G01 X43.7553 Y21.6855
G01 X43.7769 Y21.6876
G01 X43.7983 Y21.6908
G01 X43.8090 Y21.6928
G01 X43.8301 Y21.6975
G01 X43.8510 Y21.7033
G01 X43.8716 Y21.7101
G01 X43.8918 Y21.7179
G01 X43.9116 Y21.7267
G01 X43.9310 Y21.7365
G01 X43.9499 Y21.7471
G01 X43.9591 Y21.7528
G01 X43.9771 Y21.7649
G01 X43.9945 Y21.7778
G01 X44.0113 Y21.7915
G01 X44.0194 Y21.7987
G01 X44.0351 Y21.8137
G01 X44.0501 Y21.8294
G01 X44.0642 Y21.8458
G01 X44.0710 Y21.8543
G01 X44.0839 Y21.8717
G01 X44.0960 Y21.8897
G01 X44.1071 Y21.9083
G01 X44.1173 Y21.9274
G01 X44.1221 Y21.9372
G01 X44.1309 Y21.9570
G01 X44.1387 Y21.9772
G01 X44.1455 Y21.9978
G01 X44.1485 Y22.0082
G01 X44.1513 Y22.0187
G01 X44.1560 Y22.0398
G01 X44.1597 Y22.0612
G01 X44.1612 Y22.0719
G01 X44.1633 Y22.0935
G01 X44.1644 Y22.1152
G01 X44.1645 Y22.1260
G01 X44.1645 Y25.6260
G01 X44.1640 Y25.6477
G01 X44.1624 Y25.6693
G01 X44.1597 Y25.6908
G01 X44.1580 Y25.7015
G01 X44.1538 Y25.7228
G01 X44.1485 Y25.7438
G01 X44.1455 Y25.7542
G01 X44.1387 Y25.7748
G01 X44.1309 Y25.7950
G01 X44.1221 Y25.8148
G01 X44.1173 Y25.8246
G01 X44.1071 Y25.8437
G01 X44.1017 Y25.8531
G01 X44.0960 Y25.8623
G01 X44.0839 Y25.8803
G01 X44.0776 Y25.8891
G01 X44.0642 Y25.9062
G01 X44.0501 Y25.9226
G01 X44.0351 Y25.9383
G01 X44.0194 Y25.9533
G01 X44.0113 Y25.9605
G01 X43.9945 Y25.9742
G01 X43.9859 Y25.9808
G01 X43.9682 Y25.9933
G01 X43.9591 Y25.9992
G01 X43.9499 Y26.0049
G01 X43.9310 Y26.0155
G01 X43.9116 Y26.0253
G01 X43.9018 Y26.0298
G01 X43.8818 Y26.0381
G01 X43.8716 Y26.0419
G01 X43.8510 Y26.0487
G01 X43.8301 Y26.0545
G01 X43.8196 Y26.0570
G01 X43.7983 Y26.0612
G01 X43.7876 Y26.0629
G01 X43.7661 Y26.0656
G01 X43.7553 Y26.0665
G01 X43.7336 Y26.0676
G01 X41.7228 Y26.0677
G01 X41.7011 Y26.0672
G01 X41.6903 Y26.0665
G01 X41.6687 Y26.0644
G01 X41.6473 Y26.0612
G01 X41.6260 Y26.0570
G01 X41.6050 Y26.0517
G01 X41.5843 Y26.0454
G01 X41.5638 Y26.0381
G01 X41.5438 Y26.0298
G01 X41.5242 Y26.0205
G01 X41.5051 Y26.0103
G01 X41.4865 Y25.9992
G01 X41.4685 Y25.9871
G01 X41.4511 Y25.9742
G01 X41.4343 Y25.9605
G01 X41.4182 Y25.9459
G01 X41.4029 Y25.9306
G01 X41.3883 Y25.9145
G01 X41.3746 Y25.8977
G01 X41.3680 Y25.8891
G01 X41.3555 Y25.8714
G01 X41.3439 Y25.8531
G01 X41.3333 Y25.8342
G01 X41.3283 Y25.8246
G01 X41.3190 Y25.8050
G01 X41.3107 Y25.7850
G01 X41.3069 Y25.7748
G01 X41.3001 Y25.7542
G01 X41.2943 Y25.7333
G01 X41.2896 Y25.7122
G01 X41.2859 Y25.6908
G01 X41.2832 Y25.6693
G01 X41.2823 Y25.6585
G01 X41.2812 Y25.6368
G01 X41.2811 Y22.1260
G01 X41.2816 Y22.1043
G01 X41.2823 Y22.0935
G01 X41.2844 Y22.0719
G01 X41.2876 Y22.0505
G01 X41.2918 Y22.0292
G01 X41.2971 Y22.0082
G01 X41.3001 Y21.9978
G01 X41.3069 Y21.9772
G01 X41.3147 Y21.9570
G01 X41.3235 Y21.9372
G01 X41.3283 Y21.9274
G01 X41.3333 Y21.9178
G01 X41.3439 Y21.8989
G01 X41.3555 Y21.8806
G01 X41.3680 Y21.8629
G01 X41.3814 Y21.8458
G01 X41.3955 Y21.8294
G01 X41.4105 Y21.8137
G01 X41.4182 Y21.8061
G01 X41.4262 Y21.7987
G01 X41.4426 Y21.7846
G01 X41.4597 Y21.7712
G01 X41.4774 Y21.7587
G01 X41.4865 Y21.7528
G01 X41.5051 Y21.7417
G01 X41.5242 Y21.7315
G01 X41.5438 Y21.7222
G01 X41.5638 Y21.7139
G01 X41.5842 Y21.7066
G01 X41.6050 Y21.7003
G01 X41.6260 Y21.6950
G01 X41.6473 Y21.6908
G01 X41.6687 Y21.6876
G01 X41.6903 Y21.6855
G01 X41.7120 Y21.6844
G01 X41.7228 Y21.6843
G01 X41.9761 Y21.6843
G01 X41.9761 Y20.8362
G01 X41.9573 Y20.8247
G01 X41.9393 Y20.8127
G01 X41.8468 Y20.7441
G01 X41.8300 Y20.7303
G01 X41.8219 Y20.7232
G01 X41.7527 Y20.6604
G01 X41.7370 Y20.6454
G01 X41.7220 Y20.6297
G01 X41.6592 Y20.5605
G01 X41.6451 Y20.5441
G01 X41.6383 Y20.5356
G01 X41.5697 Y20.4431
G01 X41.5577 Y20.4251
G01 X41.5462 Y20.4062
G01 X40.2336 Y20.4062
G01 X40.2119 Y20.4057
G01 X40.1712 Y20.4036
G01 X40.1604 Y20.4027
G01 X40.1389 Y20.4000
G01 X40.1093 Y20.3956
G01 X40.0879 Y20.3919
G01 X40.0668 Y20.3872
G01 X40.0378 Y20.3799
G01 X40.0273 Y20.3771
G01 X40.0065 Y20.3708
G01 X39.9681 Y20.3572
G01 X39.9479 Y20.3494
G01 X39.9280 Y20.3406
G01 X39.9010 Y20.3278
G01 X39.8816 Y20.3181
G01 X39.8721 Y20.3129
G01 X39.8279 Y20.2863
G01 X39.8188 Y20.2804
G01 X39.8011 Y20.2679
G01 X39.7770 Y20.2501
G01 X39.7599 Y20.2368
G01 X39.7435 Y20.2226
G01 X39.7213 Y20.2025
G01 X39.7056 Y20.1876
G01 X37.3843 Y17.8663
G01 X36.2794 Y17.8663
G01 X36.2679 Y17.8851
G01 X36.2559 Y17.9031
G01 X36.1939 Y17.9870
G01 X36.1805 Y18.0041
G01 X36.1664 Y18.0205
G01 X36.1036 Y18.0897
G01 X36.0886 Y18.1054
G01 X36.0809 Y18.1130
G01 X36.0037 Y18.1832
G01 X35.9873 Y18.1973
G01 X35.9702 Y18.2107
G01 X35.8951 Y18.2663
G01 X35.8774 Y18.2788
G01 X35.8591 Y18.2904
G01 X35.7789 Y18.3385
G01 X35.7600 Y18.3492
G01 X35.7407 Y18.3589
G01 X35.6562 Y18.3989
G01 X35.6363 Y18.4077
G01 X35.6161 Y18.4155
G01 X35.5281 Y18.4470
G01 X35.5075 Y18.4538
G01 X35.4866 Y18.4595
G01 X35.3959 Y18.4823
G01 X35.3748 Y18.4870
G01 X35.3534 Y18.4907
G01 X35.2610 Y18.5044
G01 X35.2395 Y18.5071
G01 X35.2178 Y18.5087
G01 X35.1245 Y18.5133
G01 X35.1028 Y18.5138
G01 X35.0811 Y18.5133
G01 X34.9878 Y18.5087
G01 X34.9661 Y18.5071
G01 X34.9446 Y18.5044
G01 X34.8522 Y18.4907
G01 X34.8308 Y18.4870
G01 X34.8097 Y18.4823
G01 X34.7190 Y18.4595
G01 X34.6981 Y18.4538
G01 X34.6775 Y18.4470
G01 X34.5895 Y18.4155
G01 X34.5693 Y18.4077
G01 X34.5494 Y18.3989
G01 X34.4649 Y18.3589
G01 X34.4456 Y18.3492
G01 X34.4267 Y18.3385
G01 X34.3465 Y18.2904
G01 X34.3282 Y18.2788
G01 X34.3105 Y18.2663
G01 X34.2354 Y18.2107
G01 X34.2183 Y18.1973
G01 X34.2019 Y18.1832
G01 X34.1327 Y18.1204
G01 X34.1170 Y18.1054
G01 X34.1020 Y18.0897
G01 X34.0321 Y18.0124
G01 X34.0251 Y18.0041
G01 X34.0117 Y17.9870
G01 X33.9561 Y17.9119
G01 X33.9436 Y17.8942
G01 X33.9377 Y17.8851
G01 X33.8839 Y17.7957
G01 X33.8732 Y17.7768
G01 X33.8635 Y17.7575
G01 X33.8328 Y17.6926
G01 X33.8021 Y17.7575
G01 X33.7924 Y17.7768
G01 X33.7817 Y17.7957
G01 X33.7279 Y17.8851
G01 X33.7159 Y17.9031
G01 X33.7095 Y17.9119
G01 X33.6539 Y17.9870
G01 X33.6473 Y17.9956
G01 X33.6335 Y18.0124
G01 X33.5636 Y18.0897
G01 X33.5486 Y18.1054
G01 X33.5329 Y18.1204
G01 X33.4637 Y18.1832
G01 X33.4473 Y18.1973
G01 X33.4302 Y18.2107
G01 X33.3551 Y18.2663
G01 X33.3374 Y18.2788
G01 X33.3283 Y18.2847
G01 X33.2389 Y18.3385
G01 X33.2200 Y18.3492
G01 X33.2007 Y18.3589
G01 X33.1162 Y18.3989
G01 X33.0963 Y18.4077
G01 X33.0761 Y18.4155
G01 X32.9881 Y18.4470
G01 X32.9675 Y18.4538
G01 X32.9466 Y18.4595
G01 X32.8559 Y18.4823
G01 X32.8348 Y18.4870
G01 X32.8134 Y18.4907
G01 X32.7210 Y18.5044
G01 X32.6995 Y18.5071
G01 X32.6778 Y18.5087
G01 X32.5845 Y18.5133
G01 X32.5736 Y18.5137
G01 X32.5520 Y18.5137
G01 X32.4478 Y18.5087
G01 X32.4261 Y18.5071
G01 X32.4046 Y18.5044
G01 X32.3122 Y18.4907
G01 X32.2908 Y18.4870
G01 X32.2697 Y18.4823
G01 X32.1790 Y18.4595
G01 X32.1581 Y18.4538
G01 X32.1375 Y18.4470
G01 X32.0495 Y18.4155
G01 X32.0293 Y18.4077
G01 X32.0094 Y18.3989
G01 X31.9249 Y18.3589
G01 X31.9056 Y18.3492
G01 X31.8867 Y18.3385
G01 X31.8065 Y18.2904
G01 X31.7882 Y18.2788
G01 X31.7705 Y18.2663
G01 X31.6954 Y18.2107
G01 X31.6783 Y18.1973
G01 X31.6619 Y18.1832
G01 X31.5927 Y18.1204
G01 X31.5770 Y18.1054
G01 X31.5620 Y18.0897
G01 X31.4921 Y18.0124
G01 X31.4851 Y18.0041
G01 X31.4717 Y17.9870
G01 X31.4161 Y17.9119
G01 X31.4036 Y17.8942
G01 X31.3977 Y17.8851
G01 X31.3439 Y17.7957
G01 X31.3332 Y17.7768
G01 X31.3235 Y17.7575
G01 X31.2928 Y17.6926
G01 X31.2621 Y17.7575
G01 X31.2524 Y17.7768
G01 X31.2417 Y17.7957
G01 X31.1879 Y17.8851
G01 X31.1820 Y17.8942
G01 X31.1695 Y17.9119
G01 X31.1139 Y17.9870
G01 X31.1073 Y17.9956
G01 X31.0935 Y18.0124
G01 X31.0236 Y18.0897
G01 X31.0086 Y18.1054
G01 X30.9929 Y18.1204
G01 X30.9237 Y18.1832
G01 X30.9073 Y18.1973
G01 X30.8902 Y18.2107
G01 X30.8151 Y18.2663
G01 X30.8063 Y18.2727
G01 X30.7883 Y18.2847
G01 X30.6989 Y18.3385
G01 X30.6800 Y18.3492
G01 X30.6607 Y18.3589
G01 X30.5762 Y18.3989
G01 X30.5563 Y18.4077
G01 X30.5361 Y18.4155
G01 X30.4481 Y18.4470
G01 X30.4275 Y18.4538
G01 X30.4066 Y18.4595
G01 X30.3159 Y18.4823
G01 X30.2948 Y18.4870
G01 X30.2734 Y18.4907
G01 X30.1810 Y18.5044
G01 X30.1595 Y18.5071
G01 X30.1378 Y18.5087
G01 X30.0445 Y18.5133
G01 X30.0336 Y18.5137
G01 X30.0120 Y18.5137
G01 X29.9078 Y18.5087
G01 X29.8861 Y18.5071
G01 X29.8646 Y18.5044
G01 X29.7722 Y18.4907
G01 X29.7508 Y18.4870
G01 X29.7297 Y18.4823
G01 X29.6390 Y18.4595
G01 X29.6181 Y18.4538
G01 X29.5975 Y18.4470
G01 X29.5095 Y18.4155
G01 X29.4893 Y18.4077
G01 X29.4694 Y18.3989
G01 X29.3849 Y18.3589
G01 X29.3656 Y18.3492
G01 X29.3467 Y18.3385
G01 X29.2665 Y18.2904
G01 X29.2482 Y18.2788
G01 X29.2305 Y18.2663
G01 X29.1554 Y18.2107
G01 X29.1383 Y18.1973
G01 X29.1219 Y18.1832
G01 X29.0527 Y18.1204
G01 X29.0370 Y18.1054
G01 X29.0220 Y18.0897
G01 X28.9521 Y18.0124
G01 X28.9383 Y17.9956
G01 X28.9317 Y17.9870
G01 X28.8761 Y17.9119
G01 X28.8697 Y17.9031
G01 X28.8577 Y17.8851
G01 X28.8039 Y17.7957
G01 X28.7932 Y17.7768
G01 X28.7835 Y17.7575
G01 X28.7528 Y17.6926
G01 X28.7221 Y17.7575
G01 X28.7124 Y17.7768
G01 X28.7017 Y17.7957
G01 X28.6479 Y17.8851
G01 X28.6420 Y17.8942
G01 X28.6295 Y17.9119
G01 X28.5739 Y17.9870
G01 X28.5673 Y17.9956
G01 X28.5535 Y18.0124
G01 X28.4836 Y18.0897
G01 X28.4686 Y18.1054
G01 X28.4529 Y18.1204
G01 X28.3837 Y18.1832
G01 X28.3673 Y18.1973
G01 X28.3502 Y18.2107
G01 X28.2751 Y18.2663
G01 X28.2574 Y18.2788
G01 X28.2483 Y18.2847
G01 X28.1589 Y18.3385
G01 X28.1400 Y18.3492
G01 X28.1207 Y18.3589
G01 X28.0362 Y18.3989
G01 X28.0163 Y18.4077
G01 X27.9961 Y18.4155
G01 X27.9081 Y18.4470
G01 X27.8875 Y18.4538
G01 X27.8666 Y18.4595
G01 X27.7759 Y18.4823
G01 X27.7548 Y18.4870
G01 X27.7334 Y18.4907
G01 X27.6410 Y18.5044
G01 X27.6195 Y18.5071
G01 X27.5978 Y18.5087
G01 X27.5045 Y18.5133
G01 X27.4936 Y18.5137
G01 X27.4720 Y18.5137
G01 X27.3678 Y18.5087
G01 X27.3461 Y18.5071
G01 X27.3246 Y18.5044
G01 X27.2322 Y18.4907
G01 X27.2108 Y18.4870
G01 X27.1897 Y18.4823
G01 X27.0990 Y18.4595
G01 X27.0781 Y18.4538
G01 X27.0575 Y18.4470
G01 X26.9695 Y18.4155
G01 X26.9493 Y18.4077
G01 X26.9294 Y18.3989
G01 X26.8449 Y18.3589
G01 X26.8256 Y18.3492
G01 X26.8067 Y18.3385
G01 X26.7265 Y18.2904
G01 X26.7082 Y18.2788
G01 X26.6905 Y18.2663
G01 X26.6154 Y18.2107
G01 X26.5983 Y18.1973
G01 X26.5819 Y18.1832
G01 X26.5127 Y18.1204
G01 X26.4970 Y18.1054
G01 X26.4820 Y18.0897
G01 X26.4121 Y18.0124
G01 X26.3983 Y17.9956
G01 X26.3917 Y17.9870
G01 X26.3361 Y17.9119
G01 X26.3297 Y17.9031
G01 X26.3177 Y17.8851
G01 X26.2639 Y17.7957
G01 X26.2532 Y17.7768
G01 X26.2435 Y17.7575
G01 X26.2128 Y17.6926
G01 X26.1821 Y17.7575
G01 X26.1724 Y17.7768
G01 X26.1617 Y17.7957
G01 X26.1079 Y17.8851
G01 X26.1020 Y17.8942
G01 X26.0895 Y17.9119
G01 X26.0339 Y17.9870
G01 X26.0273 Y17.9956
G01 X26.0135 Y18.0124
G01 X25.9436 Y18.0897
G01 X25.9286 Y18.1054
G01 X25.9129 Y18.1204
G01 X25.8437 Y18.1832
G01 X25.8273 Y18.1973
G01 X25.8102 Y18.2107
G01 X25.7351 Y18.2663
G01 X25.7174 Y18.2788
G01 X25.7083 Y18.2847
G01 X25.6189 Y18.3385
G01 X25.6000 Y18.3492
G01 X25.5807 Y18.3589
G01 X25.4962 Y18.3989
G01 X25.4763 Y18.4077
G01 X25.4561 Y18.4155
G01 X25.3681 Y18.4470
G01 X25.3475 Y18.4538
G01 X25.3266 Y18.4595
G01 X25.2359 Y18.4823
G01 X25.2148 Y18.4870
G01 X25.1934 Y18.4907
G01 X25.1010 Y18.5044
G01 X25.0795 Y18.5071
G01 X25.0578 Y18.5087
G01 X24.9645 Y18.5133
G01 X24.9536 Y18.5137
G01 X24.9320 Y18.5137
G01 X24.8278 Y18.5087
G01 X24.8061 Y18.5071
G01 X24.7846 Y18.5044
G01 X24.6922 Y18.4907
G01 X24.6708 Y18.4870
G01 X24.6497 Y18.4823
G01 X24.5590 Y18.4595
G01 X24.5381 Y18.4538
G01 X24.5175 Y18.4470
G01 X24.4295 Y18.4155
G01 X24.4093 Y18.4077
G01 X24.3894 Y18.3989
G01 X24.3049 Y18.3589
G01 X24.2856 Y18.3492
G01 X24.2667 Y18.3385
G01 X24.1865 Y18.2904
G01 X24.1682 Y18.2788
G01 X24.1505 Y18.2663
G01 X24.0754 Y18.2107
G01 X24.0583 Y18.1973
G01 X24.0419 Y18.1832
G01 X23.9727 Y18.1204
G01 X23.9570 Y18.1054
G01 X23.9420 Y18.0897
G01 X23.8721 Y18.0124
G01 X23.8651 Y18.0041
G01 X23.8517 Y17.9870
G01 X23.7961 Y17.9119
G01 X23.7897 Y17.9031
G01 X23.7777 Y17.8851
G01 X23.7239 Y17.7957
G01 X23.7132 Y17.7768
G01 X23.7035 Y17.7575
G01 X23.6728 Y17.6926
G01 X23.6421 Y17.7575
G01 X23.6324 Y17.7768
G01 X23.6217 Y17.7957
G01 X23.5679 Y17.8851
G01 X23.5620 Y17.8942
G01 X23.5495 Y17.9119
G01 X23.4939 Y17.9870
G01 X23.4873 Y17.9956
G01 X23.4735 Y18.0124
G01 X23.4036 Y18.0897
G01 X23.3886 Y18.1054
G01 X23.3729 Y18.1204
G01 X23.3037 Y18.1832
G01 X23.2873 Y18.1973
G01 X23.2702 Y18.2107
G01 X23.1951 Y18.2663
G01 X23.1774 Y18.2788
G01 X23.1683 Y18.2847
G01 X23.0789 Y18.3385
G01 X23.0600 Y18.3492
G01 X23.0407 Y18.3589
G01 X22.9562 Y18.3989
G01 X22.9363 Y18.4077
G01 X22.9161 Y18.4155
G01 X22.8281 Y18.4470
G01 X22.8075 Y18.4538
G01 X22.7866 Y18.4595
G01 X22.6959 Y18.4823
G01 X22.6748 Y18.4870
G01 X22.6534 Y18.4907
G01 X22.5610 Y18.5044
G01 X22.5395 Y18.5071
G01 X22.5178 Y18.5087
G01 X22.4245 Y18.5133
G01 X22.4028 Y18.5138
G01 X22.3811 Y18.5133
G01 X22.2878 Y18.5087
G01 X22.2661 Y18.5071
G01 X22.2446 Y18.5044
G01 X22.1522 Y18.4907
G01 X22.1308 Y18.4870
G01 X22.1097 Y18.4823
G01 X22.0190 Y18.4595
G01 X21.9981 Y18.4538
G01 X21.9775 Y18.4470
G01 X21.8895 Y18.4155
G01 X21.8693 Y18.4077
G01 X21.8494 Y18.3989
G01 X21.7649 Y18.3589
G01 X21.7456 Y18.3492
G01 X21.7267 Y18.3385
G01 X21.6373 Y18.2847
G01 X21.6282 Y18.2788
G01 X21.6105 Y18.2663
G01 X21.5354 Y18.2107
G01 X21.5183 Y18.1973
G01 X21.5019 Y18.1832
G01 X21.4327 Y18.1204
G01 X21.4170 Y18.1054
G01 X21.4020 Y18.0897
G01 X21.3321 Y18.0124
G01 X21.3251 Y18.0041
G01 X21.3117 Y17.9870
G01 X21.2561 Y17.9119
G01 X21.2497 Y17.9031
G01 X21.2377 Y17.8851
G01 X21.1839 Y17.7957
G01 X21.1732 Y17.7768
G01 X21.1635 Y17.7575
G01 X21.1328 Y17.6926
G01 X21.1021 Y17.7575
G01 X21.0924 Y17.7768
G01 X21.0817 Y17.7957
G01 X21.0279 Y17.8851
G01 X21.0220 Y17.8942
G01 X21.0095 Y17.9119
G01 X20.9539 Y17.9870
G01 X20.9473 Y17.9956
G01 X20.9335 Y18.0124
G01 X20.8636 Y18.0897
G01 X20.8486 Y18.1054
G01 X20.8329 Y18.1204
G01 X20.7637 Y18.1832
G01 X20.7473 Y18.1973
G01 X20.7302 Y18.2107
G01 X20.6551 Y18.2663
G01 X20.6374 Y18.2788
G01 X20.6283 Y18.2847
G01 X20.5389 Y18.3385
G01 X20.5200 Y18.3492
G01 X20.5007 Y18.3589
G01 X20.4162 Y18.3989
G01 X20.3963 Y18.4077
G01 X20.3761 Y18.4155
G01 X20.2881 Y18.4470
G01 X20.2675 Y18.4538
G01 X20.2466 Y18.4595
G01 X20.1559 Y18.4823
G01 X20.1348 Y18.4870
G01 X20.1134 Y18.4907
G01 X20.0210 Y18.5044
G01 X19.9995 Y18.5071
G01 X19.9778 Y18.5087
G01 X19.8845 Y18.5133
G01 X19.8628 Y18.5138
G01 X19.8411 Y18.5133
G01 X19.7478 Y18.5087
G01 X19.7261 Y18.5071
G01 X19.7046 Y18.5044
G01 X19.6122 Y18.4907
G01 X19.5908 Y18.4870
G01 X19.5697 Y18.4823
G01 X19.4790 Y18.4595
G01 X19.4581 Y18.4538
G01 X19.4375 Y18.4470
G01 X19.3495 Y18.4155
G01 X19.3293 Y18.4077
G01 X19.3094 Y18.3989
G01 X19.2249 Y18.3589
G01 X19.2056 Y18.3492
G01 X19.1867 Y18.3385
G01 X19.0973 Y18.2847
G01 X19.0882 Y18.2788
G01 X19.0705 Y18.2663
G01 X18.9954 Y18.2107
G01 X18.9783 Y18.1973
G01 X18.9619 Y18.1832
G01 X18.8927 Y18.1204
G01 X18.8770 Y18.1054
G01 X18.8620 Y18.0897
G01 X18.7921 Y18.0124
G01 X18.7851 Y18.0041
G01 X18.7717 Y17.9870
G01 X18.7161 Y17.9119
G01 X18.7097 Y17.9031
G01 X18.6977 Y17.8851
G01 X18.6439 Y17.7957
G01 X18.6332 Y17.7768
G01 X18.6235 Y17.7575
G01 X18.5928 Y17.6926
G01 X18.5621 Y17.7575
G01 X18.5524 Y17.7768
G01 X18.5417 Y17.7957
G01 X18.4879 Y17.8851
G01 X18.4820 Y17.8942
G01 X18.4695 Y17.9119
G01 X18.4139 Y17.9870
G01 X18.4073 Y17.9956
G01 X18.3935 Y18.0124
G01 X18.3236 Y18.0897
G01 X18.3086 Y18.1054
G01 X18.2929 Y18.1204
G01 X18.2237 Y18.1832
G01 X18.2073 Y18.1973
G01 X18.1902 Y18.2107
G01 X18.1151 Y18.2663
G01 X18.0974 Y18.2788
G01 X18.0883 Y18.2847
G01 X17.9989 Y18.3385
G01 X17.9800 Y18.3492
G01 X17.9607 Y18.3589
G01 X17.8762 Y18.3989
G01 X17.8563 Y18.4077
G01 X17.8361 Y18.4155
G01 X17.7481 Y18.4470
G01 X17.7275 Y18.4538
G01 X17.7066 Y18.4595
G01 X17.6159 Y18.4823
G01 X17.5948 Y18.4870
G01 X17.5734 Y18.4907
G01 X17.4810 Y18.5044
G01 X17.4595 Y18.5071
G01 X17.4378 Y18.5087
G01 X17.3445 Y18.5133
G01 X17.3228 Y18.5138
G01 X17.3011 Y18.5133
G01 X17.2078 Y18.5087
G01 X17.1861 Y18.5071
G01 X17.1646 Y18.5044
G01 X17.0722 Y18.4907
G01 X17.0508 Y18.4870
G01 X17.0297 Y18.4823
G01 X16.9390 Y18.4595
G01 X16.9181 Y18.4538
G01 X16.8975 Y18.4470
G01 X16.8095 Y18.4155
G01 X16.7893 Y18.4077
G01 X16.7694 Y18.3989
G01 X16.6849 Y18.3589
G01 X16.6656 Y18.3492
G01 X16.6467 Y18.3385
G01 X16.5573 Y18.2847
G01 X16.5482 Y18.2788
G01 X16.5305 Y18.2663
G01 X16.4554 Y18.2107
G01 X16.4383 Y18.1973
G01 X16.4219 Y18.1832
G01 X16.3527 Y18.1204
G01 X16.3370 Y18.1054
G01 X16.3220 Y18.0897
G01 X16.2521 Y18.0124
G01 X16.2383 Y17.9956
G01 X16.2317 Y17.9870
G01 X16.1761 Y17.9119
G01 X16.1697 Y17.9031
G01 X16.1577 Y17.8851
G01 X16.1039 Y17.7957
G01 X16.0932 Y17.7768
G01 X16.0835 Y17.7575
G01 X16.0528 Y17.6926
G01 X16.0221 Y17.7575
G01 X16.0124 Y17.7768
G01 X16.0017 Y17.7957
G01 X15.9479 Y17.8851
G01 X15.9420 Y17.8942
G01 X15.9295 Y17.9119
G01 X15.8739 Y17.9870
G01 X15.8605 Y18.0041
G01 X15.8535 Y18.0124
G01 X15.7836 Y18.0897
G01 X15.7686 Y18.1054
G01 X15.7529 Y18.1204
G01 X15.6837 Y18.1832
G01 X15.6673 Y18.1973
G01 X15.6502 Y18.2107
G01 X15.5751 Y18.2663
G01 X15.5574 Y18.2788
G01 X15.5483 Y18.2847
G01 X15.4589 Y18.3385
G01 X15.4400 Y18.3492
G01 X15.4207 Y18.3589
G01 X15.3362 Y18.3989
G01 X15.3163 Y18.4077
G01 X15.2961 Y18.4155
G01 X15.2081 Y18.4470
G01 X15.1875 Y18.4538
G01 X15.1666 Y18.4595
G01 X15.0759 Y18.4823
G01 X15.0548 Y18.4870
G01 X15.0334 Y18.4907
G01 X14.9410 Y18.5044
G01 X14.9195 Y18.5071
G01 X14.8978 Y18.5087
G01 X14.8045 Y18.5133
G01 X14.7828 Y18.5138
G01 X14.7611 Y18.5133
G01 X14.6678 Y18.5087
G01 X14.6461 Y18.5071
G01 X14.6246 Y18.5044
G01 X14.5322 Y18.4907
G01 X14.5108 Y18.4870
G01 X14.4897 Y18.4823
G01 X14.3990 Y18.4595
G01 X14.3781 Y18.4538
G01 X14.3575 Y18.4470
G01 X14.2695 Y18.4155
G01 X14.2493 Y18.4077
G01 X14.2294 Y18.3989
G01 X14.1449 Y18.3589
G01 X14.1256 Y18.3492
G01 X14.1067 Y18.3385
G01 X14.0173 Y18.2847
G01 X13.9993 Y18.2727
G01 X13.9905 Y18.2663
G01 X13.9154 Y18.2107
G01 X13.8983 Y18.1973
G01 X13.8819 Y18.1832
G01 X13.8127 Y18.1204
G01 X13.7970 Y18.1054
G01 X13.7820 Y18.0897
G01 X13.7121 Y18.0124
G01 X13.7051 Y18.0041
G01 X13.6917 Y17.9870
G01 X13.6361 Y17.9119
G01 X13.6297 Y17.9031
G01 X13.6177 Y17.8851
G01 X13.5639 Y17.7957
G01 X13.5532 Y17.7768
G01 X13.5435 Y17.7575
G01 X13.5128 Y17.6926
G01 X13.4821 Y17.7575
G01 X13.4724 Y17.7768
G01 X13.4617 Y17.7957
G01 X13.4079 Y17.8851
G01 X13.4020 Y17.8942
G01 X13.3895 Y17.9119
G01 X13.3339 Y17.9870
G01 X13.3205 Y18.0041
G01 X13.3135 Y18.0124
G01 X13.2436 Y18.0897
G01 X13.2286 Y18.1054
G01 X13.2129 Y18.1204
G01 X13.1437 Y18.1832
G01 X13.1273 Y18.1973
G01 X13.1102 Y18.2107
G01 X13.0351 Y18.2663
G01 X13.0174 Y18.2788
G01 X13.0083 Y18.2847
G01 X12.9189 Y18.3385
G01 X12.9000 Y18.3492
G01 X12.8807 Y18.3589
G01 X12.7962 Y18.3989
G01 X12.7763 Y18.4077
G01 X12.7561 Y18.4155
G01 X12.6681 Y18.4470
G01 X12.6475 Y18.4538
G01 X12.6266 Y18.4595
G01 X12.5359 Y18.4823
G01 X12.5148 Y18.4870
G01 X12.4934 Y18.4907
G01 X12.4010 Y18.5044
G01 X12.3795 Y18.5071
G01 X12.3578 Y18.5087
G01 X12.2645 Y18.5133
G01 X12.2428 Y18.5138
G01 X12.2211 Y18.5133
G01 X12.1278 Y18.5087
G01 X12.1061 Y18.5071
G01 X12.0846 Y18.5044
G01 X11.9922 Y18.4907
G01 X11.9708 Y18.4870
G01 X11.9497 Y18.4823
G01 X11.8590 Y18.4595
G01 X11.8381 Y18.4538
G01 X11.8175 Y18.4470
G01 X11.7295 Y18.4155
G01 X11.7093 Y18.4077
G01 X11.6894 Y18.3989
G01 X11.6049 Y18.3589
G01 X11.5856 Y18.3492
G01 X11.5667 Y18.3385
G01 X11.4773 Y18.2847
G01 X11.4593 Y18.2727
G01 X11.4505 Y18.2663
G01 X11.3754 Y18.2107
G01 X11.3583 Y18.1973
G01 X11.3419 Y18.1832
G01 X11.2727 Y18.1204
G01 X11.2570 Y18.1054
G01 X11.2420 Y18.0897
G01 X11.1721 Y18.0124
G01 X11.1583 Y17.9956
G01 X11.1517 Y17.9870
G01 X11.0961 Y17.9119
G01 X11.0897 Y17.9031
G01 X11.0777 Y17.8851
G01 X11.0239 Y17.7957
G01 X11.0132 Y17.7768
G01 X11.0035 Y17.7575
G01 X10.9728 Y17.6926
G01 X10.9421 Y17.7575
G01 X10.9324 Y17.7768
G01 X10.9217 Y17.7957
G01 X10.8679 Y17.8851
G01 X10.8620 Y17.8942
G01 X10.8495 Y17.9119
G01 X10.7939 Y17.9870
G01 X10.7873 Y17.9956
G01 X10.7735 Y18.0124
G01 X10.7036 Y18.0897
G01 X10.6886 Y18.1054
G01 X10.6729 Y18.1204
G01 X10.6037 Y18.1832
G01 X10.5873 Y18.1973
G01 X10.5702 Y18.2107
G01 X10.4951 Y18.2663
G01 X10.4774 Y18.2788
G01 X10.4683 Y18.2847
G01 X10.3789 Y18.3385
G01 X10.3600 Y18.3492
G01 X10.3407 Y18.3589
G01 X10.2562 Y18.3989
G01 X10.2363 Y18.4077
G01 X10.2161 Y18.4155
G01 X10.1281 Y18.4470
G01 X10.1075 Y18.4538
G01 X10.0866 Y18.4595
G01 X9.9959 Y18.4823
G01 X9.9748 Y18.4870
G01 X9.9534 Y18.4907
G01 X9.8610 Y18.5044
G01 X9.8395 Y18.5071
G01 X9.8178 Y18.5087
G01 X9.7245 Y18.5133
G01 X9.7028 Y18.5138
G01 X9.6811 Y18.5133
G01 X9.5878 Y18.5087
G01 X9.5661 Y18.5071
G01 X9.5446 Y18.5044
G01 X9.4522 Y18.4907
G01 X9.4308 Y18.4870
G01 X9.4097 Y18.4823
G01 X9.3190 Y18.4595
G01 X9.2981 Y18.4538
G01 X9.2775 Y18.4470
G01 X9.1895 Y18.4155
G01 X9.1693 Y18.4077
G01 X9.1494 Y18.3989
G01 X9.0649 Y18.3589
G01 X9.0456 Y18.3492
G01 X9.0267 Y18.3385
G01 X8.9373 Y18.2847
G01 X8.9193 Y18.2727
G01 X8.9105 Y18.2663
G01 X8.8354 Y18.2107
G01 X8.8183 Y18.1973
G01 X8.8019 Y18.1832
G01 X8.7327 Y18.1204
G01 X8.7170 Y18.1054
G01 X8.7020 Y18.0897
G01 X8.6321 Y18.0124
G01 X8.6183 Y17.9956
G01 X8.6117 Y17.9870
G01 X8.5561 Y17.9119
G01 X8.5497 Y17.9031
G01 X8.5377 Y17.8851
G01 X8.4839 Y17.7957
G01 X8.4732 Y17.7768
G01 X8.4635 Y17.7575
G01 X8.4328 Y17.6926
G01 X8.4021 Y17.7575
G01 X8.3924 Y17.7768
G01 X8.3817 Y17.7957
G01 X8.3279 Y17.8851
G01 X8.3220 Y17.8942
G01 X8.3095 Y17.9119
G01 X8.2539 Y17.9870
G01 X8.2473 Y17.9956
G01 X8.2335 Y18.0124
G01 X8.1636 Y18.0897
G01 X8.1486 Y18.1054
G01 X8.1329 Y18.1204
G01 X8.0637 Y18.1832
G01 X8.0473 Y18.1973
G01 X8.0302 Y18.2107
G01 X7.9551 Y18.2663
G01 X7.9463 Y18.2727
G01 X7.9283 Y18.2847
G01 X7.8389 Y18.3385
G01 X7.8200 Y18.3492
G01 X7.8007 Y18.3589
G01 X7.7162 Y18.3989
G01 X7.6963 Y18.4077
G01 X7.6761 Y18.4155
G01 X7.5881 Y18.4470
G01 X7.5675 Y18.4538
G01 X7.5466 Y18.4595
G01 X7.4559 Y18.4823
G01 X7.4348 Y18.4870
G01 X7.4134 Y18.4907
G01 X7.3210 Y18.5044
G01 X7.2995 Y18.5071
G01 X7.2778 Y18.5087
G01 X7.1845 Y18.5133
G01 X7.1628 Y18.5138
G01 X7.1411 Y18.5133
G01 X7.0478 Y18.5087
G01 X7.0261 Y18.5071
G01 X7.0046 Y18.5044
G01 X6.9122 Y18.4907
G01 X6.8908 Y18.4870
G01 X6.8697 Y18.4823
G01 X6.7790 Y18.4595
G01 X6.7581 Y18.4538
G01 X6.7375 Y18.4470
G01 X6.6495 Y18.4155
G01 X6.6293 Y18.4077
G01 X6.6094 Y18.3989
G01 X6.5249 Y18.3589
G01 X6.5056 Y18.3492
G01 X6.4867 Y18.3385
G01 X6.3973 Y18.2847
G01 X6.3882 Y18.2788
G01 X6.3705 Y18.2663
G01 X6.2954 Y18.2107
G01 X6.2783 Y18.1973
G01 X6.2619 Y18.1832
G01 X6.1927 Y18.1204
G01 X6.1770 Y18.1054
G01 X6.1620 Y18.0897
G01 X6.0921 Y18.0124
G01 X6.0851 Y18.0041
G01 X6.0717 Y17.9870
G01 X6.0161 Y17.9119
G01 X6.0097 Y17.9031
G01 X5.9977 Y17.8851
G01 X5.9439 Y17.7957
G01 X5.9332 Y17.7768
G01 X5.9235 Y17.7575
G01 X5.8928 Y17.6926
G01 X5.8621 Y17.7575
G01 X5.8524 Y17.7768
G01 X5.8417 Y17.7957
G01 X5.7936 Y17.8759
G01 X5.7879 Y17.8851
G01 X5.7759 Y17.9031
G01 X5.7073 Y17.9956
G01 X5.6935 Y18.0124
G01 X5.6864 Y18.0205
G01 X5.6236 Y18.0897
G01 X5.6086 Y18.1054
G01 X5.5929 Y18.1204
G01 X5.5237 Y18.1832
G01 X5.5156 Y18.1903
G01 X5.4988 Y18.2041
G01 X5.4063 Y18.2727
G01 X5.3974 Y18.2788
G01 X5.3791 Y18.2904
G01 X5.2989 Y18.3385
G01 X5.2800 Y18.3492
G01 X5.2607 Y18.3589
G01 X5.1762 Y18.3989
G01 X5.1563 Y18.4077
G01 X5.1361 Y18.4155
G01 X5.0481 Y18.4470
G01 X5.0275 Y18.4538
G01 X5.0066 Y18.4595
G01 X4.9159 Y18.4823
G01 X4.8948 Y18.4870
G01 X4.8734 Y18.4907
G01 X4.7810 Y18.5044
G01 X4.7595 Y18.5071
G01 X4.7378 Y18.5087
G01 X4.6445 Y18.5133
G01 X4.6228 Y18.5138
G01 X4.6011 Y18.5133
G01 X4.5078 Y18.5087
G01 X4.4861 Y18.5071
G01 X4.4646 Y18.5044
G01 X4.3722 Y18.4907
G01 X4.3508 Y18.4870
G01 X4.3297 Y18.4823
G01 X4.2390 Y18.4595
G01 X4.2181 Y18.4538
G01 X4.1975 Y18.4470
G01 X4.1095 Y18.4155
G01 X4.0893 Y18.4077
G01 X4.0694 Y18.3989
G01 X3.9849 Y18.3589
G01 X3.9656 Y18.3492
G01 X3.9467 Y18.3385
G01 X3.8665 Y18.2904
G01 X3.8482 Y18.2788
G01 X3.8305 Y18.2663
G01 X3.7554 Y18.2107
G01 X3.7383 Y18.1973
G01 X3.7219 Y18.1832
G01 X3.6527 Y18.1204
G01 X3.6370 Y18.1054
G01 X3.6220 Y18.0897
G01 X3.5592 Y18.0205
G01 X3.5451 Y18.0041
G01 X3.5317 Y17.9870
G01 X3.4770 Y17.9132
G01 X3.4769 Y18.0829
G01 X3.4765 Y18.0938
G01 X3.4749 Y18.1154
G01 X3.4722 Y18.1369
G01 X3.4705 Y18.1476
G01 X3.4685 Y18.1583
G01 X3.4638 Y18.1794
G01 X3.4580 Y18.2003
G01 X3.4512 Y18.2209
G01 X3.4434 Y18.2411
G01 X3.4346 Y18.2609
G01 X3.4248 Y18.2803
G01 X3.4142 Y18.2992
G01 X3.4026 Y18.3175
G01 X3.3901 Y18.3352
G01 X3.3835 Y18.3438
G01 X3.3698 Y18.3606
G01 X3.3552 Y18.3767
G01 X3.3399 Y18.3920
G01 X3.3238 Y18.4066
G01 X3.3070 Y18.4203
G01 X3.2896 Y18.4332
G01 X3.2716 Y18.4453
G01 X3.2530 Y18.4564
G01 X3.2339 Y18.4666
G01 X3.2143 Y18.4759
G01 X3.1943 Y18.4842
G01 X3.1739 Y18.4915
G01 X3.1531 Y18.4978
G01 X3.1321 Y18.5031
G01 X3.1108 Y18.5073
G01 X3.0894 Y18.5105
G01 X3.0786 Y18.5117
G01 X3.0570 Y18.5133
G01 X3.0353 Y18.5138
G01 X1.1195 Y18.5137
G01 X1.0978 Y18.5126
G01 X1.0870 Y18.5117
G01 X1.0655 Y18.5090
G01 X1.0441 Y18.5053
G01 X1.0230 Y18.5006
G01 X1.0125 Y18.4978
G01 X0.9917 Y18.4915
G01 X0.9713 Y18.4842
G01 X0.9513 Y18.4759
G01 X0.9317 Y18.4666
G01 X0.9126 Y18.4564
G01 X0.9032 Y18.4510
G01 X0.8849 Y18.4394
G01 X0.8760 Y18.4332
G01 X0.8586 Y18.4203
G01 X0.8418 Y18.4066
G01 X0.8337 Y18.3994
G01 X0.8180 Y18.3844
G01 X0.8030 Y18.3687
G01 X0.7958 Y18.3606
G01 X0.7821 Y18.3438
G01 X0.7692 Y18.3264
G01 X0.7571 Y18.3084
G01 X0.7514 Y18.2992
G01 X0.7408 Y18.2803
G01 X0.7358 Y18.2707
G01 X0.7265 Y18.2511
G01 X0.7182 Y18.2311
G01 X0.7109 Y18.2107
G01 X0.7046 Y18.1899
G01 X0.7018 Y18.1794
G01 X0.6971 Y18.1583
G01 X0.6951 Y18.1476
G01 X0.6934 Y18.1369
G01 X0.6907 Y18.1154
G01 X0.6891 Y18.0938
G01 X0.6886 Y18.0721
G01 X0.6887 Y16.1563
G01 X0.6898 Y16.1346
G01 X0.6919 Y16.1130
G01 X0.6934 Y16.1023
G01 X0.6971 Y16.0809
G01 X0.6993 Y16.0703
G01 X0.7046 Y16.0493
G01 X0.7109 Y16.0285
G01 X0.7144 Y16.0183
G01 X0.7222 Y15.9981
G01 X0.7310 Y15.9783
G01 X0.7408 Y15.9589
G01 X0.7460 Y15.9494
G01 X0.7571 Y15.9308
G01 X0.7630 Y15.9217
G01 X0.7692 Y15.9128
G01 X0.7821 Y15.8954
G01 X0.7889 Y15.8869
G01 X0.8030 Y15.8705
G01 X0.8180 Y15.8548
G01 X0.8257 Y15.8472
G01 X0.8418 Y15.8326
G01 X0.8586 Y15.8189
G01 X0.8672 Y15.8123
G01 X0.8849 Y15.7998
G01 X0.8940 Y15.7939
G01 X0.9126 Y15.7828
G01 X0.9317 Y15.7726
G01 X0.9415 Y15.7678
G01 X0.9613 Y15.7590
G01 X0.9713 Y15.7550
G01 X0.9917 Y15.7477
G01 X1.0021 Y15.7444
G01 X1.0125 Y15.7414
G01 X1.0335 Y15.7361
G01 X1.0441 Y15.7339
G01 X1.0655 Y15.7302
G01 X1.0762 Y15.7287
G01 X1.0978 Y15.7266
G01 X1.1086 Y15.7259
G01 X1.1303 Y15.7254
G01 X3.0353 Y15.7254
G01 X3.0570 Y15.7259
G01 X3.0786 Y15.7275
G01 X3.0894 Y15.7287
G01 X3.1108 Y15.7319
G01 X3.1321 Y15.7361
G01 X3.1531 Y15.7414
G01 X3.1739 Y15.7477
G01 X3.1943 Y15.7550
G01 X3.2143 Y15.7633
G01 X3.2339 Y15.7726
G01 X3.2530 Y15.7828
G01 X3.2716 Y15.7939
G01 X3.2896 Y15.8060
G01 X3.3070 Y15.8189
G01 X3.3238 Y15.8326
G01 X3.3319 Y15.8398
G01 X3.3476 Y15.8548
G01 X3.3626 Y15.8705
G01 X3.3767 Y15.8869
G01 X3.3901 Y15.9040
G01 X3.4026 Y15.9217
G01 X3.4142 Y15.9400
G01 X3.4248 Y15.9589
G01 X3.4346 Y15.9783
G01 X3.4434 Y15.9981
G01 X3.4512 Y16.0183
G01 X3.4580 Y16.0389
G01 X3.4638 Y16.0598
G01 X3.4685 Y16.0809
G01 X3.4705 Y16.0916
G01 X3.4737 Y16.1130
G01 X3.4749 Y16.1238
G01 X3.4765 Y16.1454
G01 X3.4769 Y16.1563
G01 X3.4770 Y16.3260
G01 X3.5317 Y16.2522
G01 X3.5451 Y16.2351
G01 X3.5592 Y16.2187
G01 X3.6220 Y16.1495
G01 X3.6370 Y16.1338
G01 X3.6527 Y16.1188
G01 X3.7219 Y16.0560
G01 X3.7383 Y16.0419
G01 X3.7554 Y16.0285
G01 X3.8305 Y15.9729
G01 X3.8482 Y15.9604
G01 X3.8665 Y15.9488
G01 X3.9467 Y15.9007
G01 X3.9656 Y15.8900
G01 X3.9849 Y15.8803
G01 X4.0694 Y15.8403
G01 X4.0893 Y15.8315
G01 X4.1095 Y15.8237
G01 X4.1975 Y15.7922
G01 X4.2181 Y15.7854
G01 X4.2390 Y15.7797
G01 X4.3297 Y15.7569
G01 X4.3508 Y15.7522
G01 X4.3722 Y15.7485
G01 X4.4646 Y15.7348
G01 X4.4861 Y15.7321
G01 X4.5078 Y15.7305
G01 X4.6011 Y15.7259
G01 X4.6228 Y15.7254
G01 X4.6445 Y15.7259
G01 X4.7378 Y15.7305
G01 X4.7595 Y15.7321
G01 X4.7810 Y15.7348
G01 X4.8841 Y15.7502
G01 X4.8948 Y15.7522
G01 X4.9159 Y15.7569
G01 X5.0066 Y15.7797
G01 X5.0275 Y15.7854
G01 X5.0481 Y15.7922
G01 X5.1361 Y15.8237
G01 X5.1563 Y15.8315
G01 X5.1762 Y15.8403
G01 X5.2607 Y15.8803
G01 X5.2800 Y15.8900
G01 X5.2989 Y15.9007
G01 X5.3791 Y15.9488
G01 X5.3883 Y15.9545
G01 X5.4063 Y15.9665
G01 X5.4988 Y16.0351
G01 X5.5156 Y16.0489
G01 X5.5237 Y16.0560
G01 X5.5929 Y16.1188
G01 X5.6086 Y16.1338
G01 X5.6236 Y16.1495
G01 X5.6864 Y16.2187
G01 X5.6935 Y16.2268
G01 X5.7073 Y16.2436
G01 X5.7759 Y16.3361
G01 X5.7879 Y16.3541
G01 X5.7936 Y16.3633
G01 X5.8417 Y16.4435
G01 X5.8524 Y16.4624
G01 X5.8621 Y16.4817
G01 X5.8928 Y16.5466
G01 X5.9235 Y16.4817
G01 X5.9332 Y16.4624
G01 X5.9439 Y16.4435
G01 X5.9920 Y16.3633
G01 X6.0036 Y16.3450
G01 X6.0161 Y16.3273
G01 X6.0717 Y16.2522
G01 X6.0851 Y16.2351
G01 X6.0992 Y16.2187
G01 X6.1620 Y16.1495
G01 X6.1770 Y16.1338
G01 X6.1927 Y16.1188
G01 X6.2619 Y16.0560
G01 X6.2700 Y16.0489
G01 X6.2868 Y16.0351
G01 X6.3705 Y15.9729
G01 X6.3882 Y15.9604
G01 X6.4065 Y15.9488
G01 X6.4961 Y15.8953
G01 X6.5056 Y15.8900
G01 X6.5249 Y15.8803
G01 X6.6094 Y15.8403
G01 X6.6293 Y15.8315
G01 X6.6495 Y15.8237
G01 X6.7375 Y15.7922
G01 X6.7581 Y15.7854
G01 X6.7790 Y15.7797
G01 X6.8697 Y15.7569
G01 X6.8908 Y15.7522
G01 X6.9122 Y15.7485
G01 X7.0046 Y15.7348
G01 X7.0261 Y15.7321
G01 X7.0478 Y15.7305
G01 X7.1411 Y15.7259
G01 X7.1628 Y15.7254
G01 X7.1845 Y15.7259
G01 X7.2778 Y15.7305
G01 X7.2995 Y15.7321
G01 X7.3210 Y15.7348
G01 X7.4134 Y15.7485
G01 X7.4348 Y15.7522
G01 X7.4559 Y15.7569
G01 X7.5466 Y15.7797
G01 X7.5675 Y15.7854
G01 X7.5881 Y15.7922
G01 X7.6761 Y15.8237
G01 X7.6963 Y15.8315
G01 X7.7162 Y15.8403
G01 X7.8007 Y15.8803
G01 X7.8200 Y15.8900
G01 X7.8389 Y15.9007
G01 X7.9191 Y15.9488
G01 X7.9283 Y15.9545
G01 X7.9463 Y15.9665
G01 X8.0302 Y16.0285
G01 X8.0473 Y16.0419
G01 X8.0637 Y16.0560
G01 X8.1329 Y16.1188
G01 X8.1486 Y16.1338
G01 X8.1636 Y16.1495
G01 X8.2264 Y16.2187
G01 X8.2405 Y16.2351
G01 X8.2539 Y16.2522
G01 X8.3095 Y16.3273
G01 X8.3220 Y16.3450
G01 X8.3279 Y16.3541
G01 X8.3817 Y16.4435
G01 X8.3924 Y16.4624
G01 X8.4021 Y16.4817
G01 X8.4328 Y16.5466
G01 X8.4635 Y16.4817
G01 X8.4732 Y16.4624
G01 X8.4839 Y16.4435
G01 X8.5320 Y16.3633
G01 X8.5436 Y16.3450
G01 X8.5561 Y16.3273
G01 X8.6117 Y16.2522
G01 X8.6251 Y16.2351
G01 X8.6392 Y16.2187
G01 X8.7020 Y16.1495
G01 X8.7170 Y16.1338
G01 X8.7327 Y16.1188
G01 X8.8019 Y16.0560
G01 X8.8100 Y16.0489
G01 X8.8268 Y16.0351
G01 X8.9105 Y15.9729
G01 X8.9282 Y15.9604
G01 X8.9465 Y15.9488
G01 X9.0267 Y15.9007
G01 X9.0361 Y15.8953
G01 X9.0552 Y15.8850
G01 X9.1494 Y15.8403
G01 X9.1693 Y15.8315
G01 X9.1895 Y15.8237
G01 X9.2775 Y15.7922
G01 X9.2981 Y15.7854
G01 X9.3190 Y15.7797
G01 X9.4097 Y15.7569
G01 X9.4308 Y15.7522
G01 X9.4522 Y15.7485
G01 X9.5446 Y15.7348
G01 X9.5661 Y15.7321
G01 X9.5878 Y15.7305
G01 X9.6811 Y15.7259
G01 X9.7028 Y15.7254
G01 X9.7245 Y15.7259
G01 X9.8287 Y15.7312
G01 X9.8502 Y15.7333
G01 X9.8610 Y15.7348
G01 X9.9534 Y15.7485
G01 X9.9748 Y15.7522
G01 X9.9959 Y15.7569
G01 X10.0866 Y15.7797
G01 X10.1075 Y15.7854
G01 X10.1281 Y15.7922
G01 X10.2161 Y15.8237
G01 X10.2363 Y15.8315
G01 X10.2562 Y15.8403
G01 X10.3407 Y15.8803
G01 X10.3600 Y15.8900
G01 X10.3789 Y15.9007
G01 X10.4591 Y15.9488
G01 X10.4683 Y15.9545
G01 X10.4863 Y15.9665
G01 X10.5702 Y16.0285
G01 X10.5873 Y16.0419
G01 X10.6037 Y16.0560
G01 X10.6729 Y16.1188
G01 X10.6886 Y16.1338
G01 X10.7036 Y16.1495
G01 X10.7664 Y16.2187
G01 X10.7805 Y16.2351
G01 X10.7939 Y16.2522
G01 X10.8495 Y16.3273
G01 X10.8559 Y16.3361
G01 X10.8679 Y16.3541
G01 X10.9217 Y16.4435
G01 X10.9324 Y16.4624
G01 X10.9421 Y16.4817
G01 X10.9728 Y16.5466
G01 X11.0035 Y16.4817
G01 X11.0132 Y16.4624
G01 X11.0239 Y16.4435
G01 X11.0720 Y16.3633
G01 X11.0836 Y16.3450
G01 X11.0961 Y16.3273
G01 X11.1517 Y16.2522
G01 X11.1651 Y16.2351
G01 X11.1792 Y16.2187
G01 X11.2420 Y16.1495
G01 X11.2570 Y16.1338
G01 X11.2727 Y16.1188
G01 X11.3419 Y16.0560
G01 X11.3500 Y16.0489
G01 X11.3668 Y16.0351
G01 X11.4505 Y15.9729
G01 X11.4682 Y15.9604
G01 X11.4865 Y15.9488
G01 X11.5667 Y15.9007
G01 X11.5761 Y15.8953
G01 X11.5952 Y15.8850
G01 X11.6894 Y15.8403
G01 X11.7093 Y15.8315
G01 X11.7295 Y15.8237
G01 X11.8175 Y15.7922
G01 X11.8381 Y15.7854
G01 X11.8590 Y15.7797
G01 X11.9497 Y15.7569
G01 X11.9708 Y15.7522
G01 X11.9922 Y15.7485
G01 X12.0846 Y15.7348
G01 X12.1061 Y15.7321
G01 X12.1278 Y15.7305
G01 X12.2211 Y15.7259
G01 X12.2428 Y15.7254
G01 X12.2645 Y15.7259
G01 X12.3687 Y15.7312
G01 X12.3902 Y15.7333
G01 X12.4010 Y15.7348
G01 X12.4934 Y15.7485
G01 X12.5148 Y15.7522
G01 X12.5359 Y15.7569
G01 X12.6266 Y15.7797
G01 X12.6475 Y15.7854
G01 X12.6681 Y15.7922
G01 X12.7561 Y15.8237
G01 X12.7763 Y15.8315
G01 X12.7962 Y15.8403
G01 X12.8807 Y15.8803
G01 X12.9000 Y15.8900
G01 X12.9189 Y15.9007
G01 X12.9991 Y15.9488
G01 X13.0083 Y15.9545
G01 X13.0263 Y15.9665
G01 X13.1102 Y16.0285
G01 X13.1273 Y16.0419
G01 X13.1437 Y16.0560
G01 X13.2129 Y16.1188
G01 X13.2286 Y16.1338
G01 X13.2436 Y16.1495
G01 X13.3064 Y16.2187
G01 X13.3205 Y16.2351
G01 X13.3339 Y16.2522
G01 X13.3895 Y16.3273
G01 X13.3959 Y16.3361
G01 X13.4079 Y16.3541
G01 X13.4617 Y16.4435
G01 X13.4724 Y16.4624
G01 X13.4821 Y16.4817
G01 X13.5128 Y16.5466
G01 X13.5435 Y16.4817
G01 X13.5532 Y16.4624
G01 X13.5639 Y16.4435
G01 X13.6120 Y16.3633
G01 X13.6236 Y16.3450
G01 X13.6361 Y16.3273
G01 X13.6917 Y16.2522
G01 X13.7051 Y16.2351
G01 X13.7192 Y16.2187
G01 X13.7820 Y16.1495
G01 X13.7970 Y16.1338
G01 X13.8127 Y16.1188
G01 X13.8819 Y16.0560
G01 X13.8983 Y16.0419
G01 X13.9068 Y16.0351
G01 X13.9905 Y15.9729
G01 X14.0082 Y15.9604
G01 X14.0265 Y15.9488
G01 X14.1067 Y15.9007
G01 X14.1256 Y15.8900
G01 X14.1449 Y15.8803
G01 X14.2294 Y15.8403
G01 X14.2493 Y15.8315
G01 X14.2593 Y15.8275
G01 X14.3575 Y15.7922
G01 X14.3781 Y15.7854
G01 X14.3990 Y15.7797
G01 X14.5002 Y15.7544
G01 X14.5215 Y15.7502
G01 X14.5322 Y15.7485
G01 X14.6246 Y15.7348
G01 X14.6461 Y15.7321
G01 X14.6678 Y15.7305
G01 X14.7611 Y15.7259
G01 X14.7828 Y15.7254
G01 X14.8045 Y15.7259
G01 X14.8978 Y15.7305
G01 X14.9195 Y15.7321
G01 X14.9410 Y15.7348
G01 X15.0334 Y15.7485
G01 X15.0548 Y15.7522
G01 X15.0759 Y15.7569
G01 X15.1666 Y15.7797
G01 X15.1875 Y15.7854
G01 X15.2081 Y15.7922
G01 X15.2961 Y15.8237
G01 X15.3163 Y15.8315
G01 X15.3362 Y15.8403
G01 X15.4207 Y15.8803
G01 X15.4400 Y15.8900
G01 X15.4589 Y15.9007
G01 X15.5391 Y15.9488
G01 X15.5483 Y15.9545
G01 X15.5663 Y15.9665
G01 X15.6502 Y16.0285
G01 X15.6673 Y16.0419
G01 X15.6837 Y16.0560
G01 X15.7529 Y16.1188
G01 X15.7686 Y16.1338
G01 X15.7836 Y16.1495
G01 X15.8464 Y16.2187
G01 X15.8605 Y16.2351
G01 X15.8739 Y16.2522
G01 X15.9295 Y16.3273
G01 X15.9359 Y16.3361
G01 X15.9479 Y16.3541
G01 X16.0017 Y16.4435
G01 X16.0124 Y16.4624
G01 X16.0221 Y16.4817
G01 X16.0528 Y16.5466
G01 X16.0835 Y16.4817
G01 X16.0932 Y16.4624
G01 X16.1039 Y16.4435
G01 X16.1577 Y16.3541
G01 X16.1636 Y16.3450
G01 X16.1761 Y16.3273
G01 X16.2317 Y16.2522
G01 X16.2383 Y16.2436
G01 X16.2521 Y16.2268
G01 X16.3220 Y16.1495
G01 X16.3370 Y16.1338
G01 X16.3527 Y16.1188
G01 X16.4300 Y16.0489
G01 X16.4468 Y16.0351
G01 X16.4554 Y16.0285
G01 X16.5393 Y15.9665
G01 X16.5573 Y15.9545
G01 X16.5789 Y15.9414
G01 X16.6016 Y12.0348
G01 X16.6022 Y12.0130
G01 X16.6046 Y11.9728
G01 X16.6056 Y11.9617
G01 X16.6084 Y11.9400
G01 X16.6129 Y11.9110
G01 X16.6168 Y11.8895
G01 X16.6218 Y11.8680
G01 X16.6291 Y11.8396
G01 X16.6351 Y11.8183
G01 X16.6421 Y11.7976
G01 X16.6521 Y11.7700
G01 X16.6601 Y11.7497
G01 X16.6646 Y11.7394
G01 X16.6868 Y11.6933
G01 X16.6920 Y11.6834
G01 X16.7029 Y11.6645
G01 X16.7181 Y11.6394
G01 X16.7301 Y11.6208
G01 X16.7428 Y11.6030
G01 X16.7604 Y11.5796
G01 X16.7739 Y11.5624
G01 X16.7812 Y11.5539
G01 X16.8158 Y11.5162
G01 X16.8236 Y11.5083
G01 X16.8396 Y11.4933
G01 X16.8614 Y11.4738
G01 X16.8782 Y11.4594
G01 X16.8956 Y11.4461
G01 X16.9192 Y11.4288
G01 X16.9372 Y11.4163
G01 X16.9466 Y11.4102
G01 X16.9811 Y11.3897
G01 X17.0002 Y11.3790
G01 X17.0200 Y11.3692
G01 X17.0466 Y11.3568
G01 X17.0667 Y11.3481
G01 X17.0771 Y11.3440
G01 X17.1150 Y11.3305
G01 X17.1358 Y11.3238
G01 X17.1571 Y11.3180
G01 X17.1963 Y11.3086
G01 X17.2072 Y11.3064
G01 X17.2288 Y11.3028
G01 X17.2578 Y11.2987
G01 X17.2798 Y11.2961
G01 X17.3016 Y11.2946
G01 X17.3418 Y11.2930
G01 X24.2624 Y11.3389
G01 X24.2827 Y10.3669
G01 X22.9292 Y10.3093
G01 X22.9249 Y10.3351
G01 X22.9202 Y10.3562
G01 X22.9144 Y10.3771
G01 X22.9045 Y10.4061
G01 X22.9015 Y10.4260
G01 X22.8995 Y10.4367
G01 X22.8948 Y10.4578
G01 X22.8890 Y10.4787
G01 X22.8822 Y10.4993
G01 X22.8784 Y10.5095
G01 X22.8701 Y10.5295
G01 X22.8608 Y10.5491
G01 X22.8478 Y10.5730
G01 X22.8354 Y10.5999
G01 X22.8224 Y10.6238
G01 X22.8100 Y10.6507
G01 X22.7970 Y10.6746
G01 X22.7846 Y10.7015
G01 X22.7744 Y10.7206
G01 X22.7633 Y10.7392
G01 X22.7512 Y10.7572
G01 X22.7383 Y10.7746
G01 X22.7315 Y10.7831
G01 X22.7174 Y10.7995
G01 X22.7024 Y10.8152
G01 X22.6894 Y10.8276
G01 X22.6770 Y10.8406
G01 X22.6640 Y10.8530
G01 X22.6516 Y10.8660
G01 X22.6386 Y10.8784
G01 X22.6262 Y10.8914
G01 X22.6132 Y10.9038
G01 X22.6008 Y10.9168
G01 X22.5878 Y10.9292
G01 X22.5754 Y10.9422
G01 X22.5624 Y10.9546
G01 X22.5500 Y10.9676
G01 X22.5423 Y10.9752
G01 X22.5262 Y10.9897
G01 X22.5179 Y10.9967
G01 X22.5008 Y11.0101
G01 X22.4920 Y11.0164
G01 X22.4740 Y11.0285
G01 X22.4554 Y11.0396
G01 X22.4433 Y11.0462
G01 X22.4246 Y11.0609
G01 X22.4158 Y11.0672
G01 X22.3978 Y11.0793
G01 X22.3792 Y11.0904
G01 X22.3601 Y11.1006
G01 X22.3332 Y11.1130
G01 X22.3093 Y11.1260
G01 X22.2897 Y11.1353
G01 X22.2797 Y11.1396
G01 X22.2595 Y11.1474
G01 X22.2493 Y11.1509
G01 X22.2285 Y11.1572
G01 X22.2180 Y11.1600
G01 X22.1969 Y11.1647
G01 X22.1862 Y11.1667
G01 X22.1663 Y11.1697
G01 X22.1373 Y11.1796
G01 X22.1269 Y11.1826
G01 X22.1059 Y11.1879
G01 X22.0846 Y11.1921
G01 X22.0632 Y11.1953
G01 X22.0416 Y11.1974
G01 X22.0199 Y11.1985
G01 X21.7189 Y11.1985
G01 X21.7080 Y11.1981
G01 X21.6864 Y11.1965
G01 X21.6649 Y11.1938
G01 X21.6435 Y11.1901
G01 X21.6224 Y11.1854
G01 X21.6015 Y11.1796
G01 X21.5912 Y11.1763
G01 X21.5707 Y11.1690
G01 X21.5524 Y11.1614
G01 X21.5357 Y11.1572
G01 X21.5150 Y11.1509
G01 X21.5047 Y11.1474
G01 X21.4845 Y11.1396
G01 X21.4745 Y11.1353
G01 X21.4549 Y11.1260
G01 X21.4310 Y11.1130
G01 X21.4139 Y11.1054
G01 X21.3945 Y11.0956
G01 X21.3802 Y11.0876
G01 X21.3533 Y11.0752
G01 X21.3342 Y11.0650
G01 X21.3156 Y11.0539
G01 X21.2976 Y11.0418
G01 X21.2802 Y11.0289
G01 X21.2717 Y11.0221
G01 X21.2553 Y11.0080
G01 X21.2388 Y10.9922
G01 X21.2140 Y10.9777
G01 X21.1960 Y10.9656
G01 X21.1786 Y10.9527
G01 X21.1618 Y10.9390
G01 X21.1457 Y10.9244
G01 X21.1256 Y10.9038
G01 X21.1050 Y10.8837
G01 X21.0905 Y10.8676
G01 X21.0767 Y10.8509
G01 X21.0701 Y10.8422
G01 X21.0577 Y10.8245
G01 X21.0517 Y10.8154
G01 X21.0372 Y10.7906
G01 X21.0288 Y10.7821
G01 X21.0143 Y10.7660
G01 X21.0005 Y10.7493
G01 X20.9876 Y10.7318
G01 X20.9755 Y10.7138
G01 X20.9644 Y10.6952
G01 X20.9592 Y10.6857
G01 X20.9494 Y10.6664
G01 X20.9418 Y10.6492
G01 X20.9288 Y10.6253
G01 X20.9164 Y10.5984
G01 X20.9034 Y10.5745
G01 X20.8941 Y10.5549
G01 X20.8898 Y10.5449
G01 X20.8820 Y10.5247
G01 X20.8752 Y10.5041
G01 X20.8694 Y10.4832
G01 X20.8634 Y10.4551
G01 X20.8570 Y10.4787
G01 X20.8502 Y10.4993
G01 X20.8424 Y10.5195
G01 X20.8336 Y10.5393
G01 X20.8238 Y10.5587
G01 X20.8158 Y10.5730
G01 X20.8034 Y10.5999
G01 X20.7904 Y10.6238
G01 X20.7780 Y10.6507
G01 X20.7650 Y10.6746
G01 X20.7574 Y10.6917
G01 X20.7476 Y10.7111
G01 X20.7424 Y10.7206
G01 X20.7313 Y10.7392
G01 X20.7192 Y10.7572
G01 X20.7129 Y10.7660
G01 X20.7063 Y10.7746
G01 X20.6926 Y10.7914
G01 X20.6780 Y10.8075
G01 X20.6574 Y10.8276
G01 X20.6450 Y10.8406
G01 X20.6320 Y10.8530
G01 X20.6196 Y10.8660
G01 X20.6066 Y10.8784
G01 X20.5942 Y10.8914
G01 X20.5812 Y10.9038
G01 X20.5688 Y10.9168
G01 X20.5558 Y10.9292
G01 X20.5434 Y10.9422
G01 X20.5304 Y10.9546
G01 X20.5180 Y10.9676
G01 X20.5050 Y10.9800
G01 X20.4849 Y11.0006
G01 X20.4688 Y11.0151
G01 X20.4605 Y11.0221
G01 X20.4434 Y11.0355
G01 X20.4257 Y11.0479
G01 X20.4074 Y11.0595
G01 X20.3980 Y11.0650
G01 X20.3789 Y11.0752
G01 X20.3520 Y11.0876
G01 X20.3377 Y11.0956
G01 X20.3184 Y11.1054
G01 X20.3012 Y11.1130
G01 X20.2773 Y11.1260
G01 X20.2577 Y11.1353
G01 X20.2377 Y11.1436
G01 X20.2173 Y11.1509
G01 X20.2069 Y11.1542
G01 X20.1860 Y11.1600
G01 X20.1649 Y11.1647
G01 X20.1542 Y11.1667
G01 X20.1343 Y11.1697
G01 X20.1157 Y11.1763
G01 X20.0949 Y11.1826
G01 X20.0739 Y11.1879
G01 X20.0526 Y11.1921
G01 X20.0419 Y11.1938
G01 X20.0204 Y11.1965
G01 X19.9988 Y11.1981
G01 X19.9879 Y11.1985
G01 X19.7231 Y11.1986
G01 X19.7014 Y11.1981
G01 X19.6798 Y11.1965
G01 X19.6690 Y11.1953
G01 X19.6476 Y11.1921
G01 X19.6263 Y11.1879
G01 X19.6053 Y11.1826
G01 X19.5949 Y11.1796
G01 X19.5659 Y11.1697
G01 X19.5460 Y11.1667
G01 X19.5353 Y11.1647
G01 X19.5142 Y11.1600
G01 X19.4933 Y11.1542
G01 X19.4727 Y11.1474
G01 X19.4525 Y11.1396
G01 X19.4327 Y11.1308
G01 X19.4133 Y11.1210
G01 X19.3990 Y11.1130
G01 X19.3721 Y11.1006
G01 X19.3482 Y11.0876
G01 X19.3213 Y11.0752
G01 X19.3022 Y11.0650
G01 X19.2928 Y11.0596
G01 X19.2745 Y11.0480
G01 X19.2656 Y11.0418
G01 X19.2482 Y11.0289
G01 X19.2314 Y11.0152
G01 X19.2153 Y11.0006
G01 X19.2068 Y10.9922
G01 X19.1820 Y10.9777
G01 X19.1640 Y10.9656
G01 X19.1466 Y10.9527
G01 X19.1298 Y10.9390
G01 X19.1217 Y10.9318
G01 X19.1060 Y10.9168
G01 X19.0936 Y10.9038
G01 X19.0730 Y10.8837
G01 X19.0585 Y10.8676
G01 X19.0515 Y10.8593
G01 X19.0381 Y10.8422
G01 X19.0257 Y10.8245
G01 X19.0141 Y10.8062
G01 X19.0052 Y10.7906
G01 X18.9894 Y10.7741
G01 X18.9753 Y10.7577
G01 X18.9685 Y10.7493
G01 X18.9619 Y10.7406
G01 X18.9495 Y10.7229
G01 X18.9379 Y10.7046
G01 X18.9324 Y10.6952
G01 X18.9222 Y10.6761
G01 X18.9098 Y10.6492
G01 X18.9018 Y10.6349
G01 X18.8920 Y10.6156
G01 X18.8844 Y10.5984
G01 X18.8714 Y10.5745
G01 X18.8621 Y10.5549
G01 X18.8578 Y10.5449
G01 X18.8500 Y10.5247
G01 X18.8432 Y10.5041
G01 X18.8374 Y10.4832
G01 X18.8314 Y10.4551
G01 X18.8280 Y10.4683
G01 X18.8217 Y10.4890
G01 X18.8144 Y10.5095
G01 X18.8068 Y10.5278
G01 X18.7996 Y10.5549
G01 X18.7928 Y10.5755
G01 X18.7850 Y10.5957
G01 X18.7762 Y10.6155
G01 X18.7714 Y10.6253
G01 X18.7612 Y10.6444
G01 X18.7501 Y10.6630
G01 X18.7442 Y10.6721
G01 X18.7317 Y10.6898
G01 X18.7170 Y10.7085
G01 X18.7104 Y10.7206
G01 X18.6993 Y10.7392
G01 X18.6872 Y10.7572
G01 X18.6809 Y10.7660
G01 X18.6743 Y10.7746
G01 X18.6606 Y10.7914
G01 X18.6460 Y10.8075
G01 X18.6254 Y10.8276
G01 X18.6130 Y10.8406
G01 X18.6000 Y10.8530
G01 X18.5876 Y10.8660
G01 X18.5746 Y10.8784
G01 X18.5622 Y10.8914
G01 X18.5492 Y10.9038
G01 X18.5368 Y10.9168
G01 X18.5238 Y10.9292
G01 X18.5114 Y10.9422
G01 X18.4984 Y10.9546
G01 X18.4860 Y10.9676
G01 X18.4730 Y10.9800
G01 X18.4606 Y10.9930
G01 X18.4449 Y11.0080
G01 X18.4285 Y11.0221
G01 X18.4114 Y11.0355
G01 X18.3937 Y11.0479
G01 X18.3754 Y11.0595
G01 X18.3660 Y11.0650
G01 X18.3469 Y11.0752
G01 X18.3200 Y11.0876
G01 X18.2961 Y11.1006
G01 X18.2692 Y11.1130
G01 X18.2549 Y11.1210
G01 X18.2356 Y11.1308
G01 X18.2157 Y11.1396
G01 X18.2057 Y11.1436
G01 X18.1853 Y11.1509
G01 X18.1645 Y11.1572
G01 X18.1540 Y11.1600
G01 X18.1329 Y11.1647
G01 X18.1222 Y11.1667
G01 X18.1023 Y11.1697
G01 X18.0733 Y11.1796
G01 X18.0629 Y11.1826
G01 X18.0419 Y11.1879
G01 X18.0206 Y11.1921
G01 X17.9992 Y11.1953
G01 X17.9776 Y11.1974
G01 X17.9559 Y11.1985
G01 X17.6911 Y11.1986
G01 X17.6694 Y11.1981
G01 X17.6478 Y11.1965
G01 X17.6370 Y11.1953
G01 X17.6156 Y11.1921
G01 X17.5943 Y11.1879
G01 X17.5733 Y11.1826
G01 X17.5629 Y11.1796
G01 X17.5339 Y11.1697
G01 X17.5140 Y11.1667
G01 X17.4927 Y11.1625
G01 X17.4717 Y11.1572
G01 X17.4613 Y11.1542
G01 X17.4510 Y11.1509
G01 X17.4305 Y11.1436
G01 X17.4205 Y11.1396
G01 X17.4007 Y11.1308
G01 X17.3813 Y11.1210
G01 X17.3670 Y11.1130
G01 X17.3401 Y11.1006
G01 X17.3162 Y11.0876
G01 X17.2991 Y11.0800
G01 X17.2797 Y11.0702
G01 X17.2608 Y11.0596
G01 X17.2516 Y11.0539
G01 X17.2336 Y11.0418
G01 X17.2162 Y11.0289
G01 X17.1994 Y11.0152
G01 X17.1833 Y11.0006
G01 X17.1748 Y10.9922
G01 X17.1592 Y10.9834
G01 X17.1409 Y10.9718
G01 X17.1232 Y10.9593
G01 X17.1061 Y10.9459
G01 X17.0978 Y10.9390
G01 X17.0817 Y10.9244
G01 X17.0616 Y10.9038
G01 X17.0410 Y10.8837
G01 X17.0336 Y10.8757
G01 X17.0195 Y10.8593
G01 X17.0061 Y10.8422
G01 X16.9937 Y10.8245
G01 X16.9877 Y10.8154
G01 X16.9732 Y10.7906
G01 X16.9574 Y10.7741
G01 X16.9433 Y10.7577
G01 X16.9299 Y10.7406
G01 X16.9175 Y10.7229
G01 X16.9059 Y10.7046
G01 X16.8952 Y10.6857
G01 X16.8854 Y10.6664
G01 X16.8778 Y10.6492
G01 X16.8648 Y10.6253
G01 X16.8555 Y10.6057
G01 X16.8472 Y10.5857
G01 X16.8399 Y10.5653
G01 X16.8336 Y10.5445
G01 X16.8294 Y10.5278
G01 X16.8218 Y10.5095
G01 X16.8145 Y10.4891
G01 X16.8082 Y10.4683
G01 X16.8040 Y10.4516
G01 X16.7964 Y10.4333
G01 X16.7891 Y10.4129
G01 X16.7828 Y10.3921
G01 X16.7800 Y10.3816
G01 X16.7775 Y10.3711
G01 X16.7733 Y10.3498
G01 X16.7716 Y10.3391
G01 X16.7689 Y10.3176
G01 X16.7680 Y10.3068
G01 X16.7669 Y10.2851
G01 X16.7668 Y10.2462
G01 X4.6228 Y10.2462
G01 X4.6011 Y10.2457
G01 X4.5604 Y10.2436
G01 X4.5496 Y10.2427
G01 X4.5281 Y10.2400
G01 X4.4985 Y10.2356
G01 X4.4771 Y10.2319
G01 X4.4560 Y10.2272
G01 X4.4165 Y10.2171
G01 X4.4061 Y10.2141
G01 X4.3855 Y10.2073
G01 X4.3573 Y10.1972
G01 X4.3371 Y10.1894
G01 X4.3172 Y10.1806
G01 X4.2805 Y10.1631
G01 X4.2613 Y10.1529
G01 X4.2520 Y10.1474
G01 X4.2263 Y10.1320
G01 X4.2080 Y10.1204
G01 X4.1903 Y10.1079
G01 X4.1576 Y10.0835
G01 X4.1491 Y10.0768
G01 X4.1327 Y10.0626
G01 X4.1105 Y10.0425
G01 X4.0948 Y10.0276
G01 X4.0799 Y10.0119
G01 X4.0598 Y9.9897
G01 X4.0456 Y9.9733
G01 X4.0389 Y9.9648
G01 X4.0145 Y9.9321
G01 X4.0020 Y9.9144
G01 X3.9904 Y9.8961
G01 X3.9750 Y9.8704
G01 X3.9695 Y9.8611
G01 X3.9593 Y9.8419
G01 X3.9373 Y9.7953
G01 X3.9330 Y9.7853
G01 X3.9252 Y9.7651
G01 X3.9151 Y9.7369
G01 X3.9083 Y9.7163
G01 X3.9025 Y9.6954
G01 X3.8927 Y9.6559
G01 X3.8905 Y9.6453
G01 X3.8868 Y9.6239
G01 X3.8824 Y9.5943
G01 X3.8797 Y9.5728
G01 X3.8782 Y9.5512
G01 X3.8763 Y9.5104
G01 X3.8761 Y8.4093
G01 X3.6148 Y8.4093
G01 X3.5931 Y8.4088
G01 X3.5715 Y8.4072
G01 X3.5607 Y8.4060
G01 X3.5393 Y8.4028
G01 X3.5180 Y8.3986
G01 X3.4970 Y8.3933
G01 X3.4866 Y8.3903
G01 X3.4660 Y8.3835
G01 X3.4458 Y8.3757
G01 X3.4260 Y8.3669
G01 X3.4066 Y8.3571
G01 X3.3971 Y8.3519
G01 X3.3785 Y8.3408
G01 X3.3605 Y8.3287
G01 X3.3517 Y8.3224
G01 X3.3346 Y8.3090
G01 X3.3182 Y8.2949
G01 X3.3025 Y8.2799
G01 X3.2875 Y8.2642
G01 X3.2734 Y8.2478
G01 X3.2600 Y8.2307
G01 X3.2537 Y8.2219
G01 X3.2416 Y8.2039
G01 X3.2305 Y8.1853
G01 X3.2203 Y8.1662
G01 X3.2155 Y8.1564
G01 X3.2067 Y8.1366
G01 X3.1989 Y8.1164
G01 X3.1921 Y8.0958
G01 X3.1863 Y8.0749
G01 X3.1838 Y8.0644
G01 X3.1796 Y8.0431
G01 X3.1764 Y8.0217
G01 X3.1752 Y8.0109
G01 X3.1736 Y7.9893
G01 X3.1731 Y7.9676
G01 X3.1731 Y5.9516
G01 X3.1736 Y5.9299
G01 X3.1752 Y5.9083
G01 X3.1764 Y5.8975
G01 X3.1796 Y5.8761
G01 X3.1838 Y5.8548
G01 X3.1891 Y5.8338
G01 X3.1954 Y5.8131
G01 X3.2027 Y5.7926
G01 X3.2067 Y5.7826
G01 X3.2155 Y5.7628
G01 X3.2253 Y5.7434
G01 X3.2359 Y5.7245
G01 X3.2475 Y5.7062
G01 X3.2537 Y5.6973
G01 X3.2666 Y5.6799
G01 X3.2803 Y5.6631
G01 X3.2949 Y5.6470
G01 X3.3102 Y5.6317
G01 X3.3182 Y5.6243
G01 X3.3346 Y5.6102
G01 X3.3517 Y5.5968
G01 X3.3605 Y5.5905
G01 X3.3785 Y5.5784
G01 X3.3971 Y5.5673
G01 X3.4162 Y5.5571
G01 X3.4358 Y5.5478
G01 X3.4558 Y5.5395
G01 X3.4660 Y5.5357
G01 X3.4866 Y5.5289
G01 X3.4970 Y5.5259
G01 X3.5180 Y5.5206
G01 X3.5393 Y5.5164
G01 X3.5607 Y5.5132
G01 X3.5823 Y5.5111
G01 X3.5931 Y5.5104
G01 X3.6148 Y5.5099
G00 Z2.0000
G00 X3.6148 Y5.7939
G01 F60.00
G01 Z-0.1000
G01 F120.00
G01 X5.6385 Y5.7940
G01 X5.6501 Y5.7950
G01 X5.6616 Y5.7969
G01 X5.6729 Y5.7996
G01 X5.6803 Y5.8018
G01 X5.6912 Y5.8059
G01 X5.7017 Y5.8107
G01 X5.7119 Y5.8163
G01 X5.7184 Y5.8204
G01 X5.7248 Y5.8249
G01 X5.7338 Y5.8322
G01 X5.7423 Y5.8401
G01 X5.7502 Y5.8486
G01 X5.7575 Y5.8576
G01 X5.7641 Y5.8672
G01 X5.7699 Y5.8772
G01 X5.7750 Y5.8877
G01 X5.7806 Y5.9021
G01 X5.7828 Y5.9095
G01 X5.7855 Y5.9208
G01 X5.7878 Y5.9361
G01 X5.7885 Y5.9516
G01 X5.7885 Y7.9676
G01 X5.7881 Y7.9792
G01 X5.7874 Y7.9869
G01 X5.7847 Y8.0022
G01 X5.7818 Y8.0134
G01 X5.7780 Y8.0244
G01 X5.7734 Y8.0350
G01 X5.7681 Y8.0454
G01 X5.7620 Y8.0552
G01 X5.7552 Y8.0646
G01 X5.7477 Y8.0735
G01 X5.7396 Y8.0818
G01 X5.7309 Y8.0895
G01 X5.7216 Y8.0966
G01 X5.7119 Y8.1029
G01 X5.7017 Y8.1085
G01 X5.6912 Y8.1133
G01 X5.6803 Y8.1174
G01 X5.6691 Y8.1206
G01 X5.6578 Y8.1230
G01 X5.6424 Y8.1249
G01 X5.6308 Y8.1253
G01 X5.0855 Y8.1253
G01 X5.0855 Y9.0369
G01 X11.8431 Y9.0369
G01 X11.8158 Y8.0698
G01 X11.2903 Y8.0698
G01 X11.2787 Y8.0694
G01 X11.2633 Y8.0675
G01 X11.2520 Y8.0651
G01 X11.2408 Y8.0619
G01 X11.2299 Y8.0578
G01 X11.2194 Y8.0530
G01 X11.2092 Y8.0474
G01 X11.1995 Y8.0411
G01 X11.1902 Y8.0340
G01 X11.1815 Y8.0263
G01 X11.1734 Y8.0180
G01 X11.1659 Y8.0092
G01 X11.1591 Y7.9997
G01 X11.1530 Y7.9899
G01 X11.1477 Y7.9795
G01 X11.1431 Y7.9689
G01 X11.1393 Y7.9579
G01 X11.1364 Y7.9467
G01 X11.1337 Y7.9314
G01 X11.1330 Y7.9237
G01 X11.1326 Y7.9121
G01 X11.1326 Y6.0071
G01 X11.1333 Y5.9916
G01 X11.1349 Y5.9801
G01 X11.1364 Y5.9725
G01 X11.1405 Y5.9576
G01 X11.1461 Y5.9432
G01 X11.1512 Y5.9327
G01 X11.1550 Y5.9260
G01 X11.1613 Y5.9163
G01 X11.1684 Y5.9070
G01 X11.1734 Y5.9012
G01 X11.1815 Y5.8929
G01 X11.1902 Y5.8852
G01 X11.1995 Y5.8781
G01 X11.2092 Y5.8718
G01 X11.2194 Y5.8662
G01 X11.2299 Y5.8614
G01 X11.2408 Y5.8573
G01 X11.2482 Y5.8551
G01 X11.2595 Y5.8524
G01 X11.2710 Y5.8505
G01 X11.2826 Y5.8495
G01 X13.1953 Y5.8494
G01 X13.2069 Y5.8498
G01 X13.2184 Y5.8511
G01 X13.2299 Y5.8532
G01 X13.2411 Y5.8561
G01 X13.2521 Y5.8599
G01 X13.2627 Y5.8645
G01 X13.2731 Y5.8698
G01 X13.2829 Y5.8759
G01 X13.2954 Y5.8852
G01 X13.3041 Y5.8929
G01 X13.3122 Y5.9012
G01 X13.3197 Y5.9100
G01 X13.3265 Y5.9195
G01 X13.3344 Y5.9327
G01 X13.3395 Y5.9432
G01 X13.3438 Y5.9540
G01 X13.3473 Y5.9650
G01 X13.3500 Y5.9763
G01 X13.3519 Y5.9878
G01 X13.3529 Y5.9994
G01 X13.3530 Y7.9121
G01 X13.3526 Y7.9237
G01 X13.3513 Y7.9352
G01 X13.3492 Y7.9467
G01 X13.3463 Y7.9579
G01 X13.3425 Y7.9689
G01 X13.3362 Y7.9830
G01 X13.3306 Y7.9932
G01 X13.3243 Y8.0029
G01 X13.3172 Y8.0122
G01 X13.3095 Y8.0209
G01 X13.3012 Y8.0290
G01 X13.2924 Y8.0365
G01 X13.2829 Y8.0433
G01 X13.2731 Y8.0494
G01 X13.2627 Y8.0547
G01 X13.2521 Y8.0593
G01 X13.2411 Y8.0631
G01 X13.2299 Y8.0660
G01 X13.2184 Y8.0681
G01 X13.2108 Y8.0691
G01 X13.1953 Y8.0698
G01 X12.7416 Y8.0698
G01 X12.7689 Y9.0369
G01 X17.0508 Y9.0369
G01 X17.0508 Y8.8011
G01 X17.0515 Y8.7856
G01 X17.0525 Y8.7780
G01 X17.0546 Y8.7665
G01 X17.0565 Y8.7590
