(G-CODE GENERATED BY FLATCAM v8.994 - www.flatcam.org - Version Date: 2020/11/7)

(Name: led nova_drill.txt_cnc)
(Type: G-code from Geometry)
(Units: MM)

(Created on Sunday, 22 November 2020 at 16:18)

(This preprocessor is the default preprocessor used by FlatCAM.)
(It is made to work with MACH3 compatible motion controllers.)


(TOOLS DIAMETER: )
(Tool: 1 -> Dia: 0.999998)
(Tool: 2 -> Dia: 0.9443212)
(Tool: 3 -> Dia: 0.3999992)
(Tool: 4 -> Dia: 0.889)
(Tool: 5 -> Dia: 1.0668)

(FEEDRATE Z: )
(Tool: 1 -> Feedrate: 100.0)
(Tool: 2 -> Feedrate: 100.0)
(Tool: 3 -> Feedrate: 100.0)
(Tool: 4 -> Feedrate: 100.0)
(Tool: 5 -> Feedrate: 100.0)

(FEEDRATE RAPIDS: )
(Tool: 1 -> Feedrate Rapids: 1500)
(Tool: 2 -> Feedrate Rapids: 1500)
(Tool: 3 -> Feedrate Rapids: 1500)
(Tool: 4 -> Feedrate Rapids: 1500)
(Tool: 5 -> Feedrate Rapids: 1500)

(Z_CUT: )
(Tool: 1 -> Z_Cut: -2.0)
(Tool: 2 -> Z_Cut: -2.0)
(Tool: 3 -> Z_Cut: -2.0)
(Tool: 4 -> Z_Cut: -2.0)
(Tool: 5 -> Z_Cut: -2.0)

(Tools Offset: )
(Tool: 1 -> Offset Z: 0.0)
(Tool: 2 -> Offset Z: 0.0)
(Tool: 3 -> Offset Z: 0.0)
(Tool: 4 -> Offset Z: 0.0)
(Tool: 5 -> Offset Z: 0.0)

(Z_MOVE: )
(Tool: 1 -> Z_Move: 2)
(Tool: 2 -> Z_Move: 2)
(Tool: 3 -> Z_Move: 2)
(Tool: 4 -> Z_Move: 2)
(Tool: 5 -> Z_Move: 2)

(Z Toolchange: 5.0 mm)
(X,Y Toolchange: 0.0000, 0.0000 mm)
(Z Start: None mm)
(Z End: 0.5 mm)
(X,Y End: None mm)
(Steps per circle: 64)
(Preprocessor Excellon: default)

(X range:    1.6408 ...   43.1698  mm)
(Y range:    2.9671 ...   42.7958  mm)

(Spindle Speed: 500 RPM)
G21
G90
G94

G01 F100.00

M5
G00 Z5.0000
T1
G00 X0.0000 Y0.0000                
M6
(MSG, Change to Tool Dia = 1.0000 ||| Total drills for tool T1 = 2)
M0
G00 Z5.0000

G01 F100.00
M03 S500
G00 X4.6253 Y6.9672
G01 Z-2.0000
G01 Z0
G00 Z2.0000
G00 X4.6253 Y3.4671
G01 Z-2.0000
G01 Z0
G00 Z2.0000
G01 F100.00

M5
G00 Z5.0000
T2
G00 X0.0000 Y0.0000                
M6
(MSG, Change to Tool Dia = 0.9443 ||| Total drills for tool T2 = 3)
M0
G00 Z5.0000

G01 F100.00
M03 S500
G00 X19.8679 Y9.5072
G01 Z-2.0000
G01 Z0
G00 Z2.0000
G00 X21.8973 Y9.5072
G01 Z-2.0000
G01 Z0
G00 Z2.0000
G00 X17.8359 Y9.5072
G01 Z-2.0000
G01 Z0
G00 Z2.0000
G01 F100.00

M5
G00 Z5.0000
T3
G00 X0.0000 Y0.0000                
M6
(MSG, Change to Tool Dia = 0.4000 ||| Total drills for tool T3 = 3)
M0
G00 Z5.0000

G01 F100.00
M03 S500
G00 X5.3619 Y37.3532
G01 Z-2.0000
G01 Z0
G00 Z2.0000
G00 X5.2273 Y40.0431
G01 Z-2.0000
G01 Z0
G00 Z2.0000
G00 X5.2273 Y42.5958
G01 Z-2.0000
G01 Z0
G00 Z2.0000
G01 F100.00

M5
G00 Z5.0000
T4
G00 X0.0000 Y0.0000                
M6
(MSG, Change to Tool Dia = 0.8890 ||| Total drills for tool T4 = 36)
M0
G00 Z5.0000

G01 F100.00
M03 S500
G00 X4.6253 Y24.7472
G01 Z-2.0000
G01 Z0
G00 Z2.0000
G00 X2.0853 Y24.7472
G01 Z-2.0000
G01 Z0
G00 Z2.0000
G00 X2.0853 Y17.1272
G01 Z-2.0000
G01 Z0
G00 Z2.0000
G00 X4.6253 Y17.1272
G01 Z-2.0000
G01 Z0
G00 Z2.0000
G00 X7.1653 Y17.1272
G01 Z-2.0000
G01 Z0
G00 Z2.0000
G00 X9.7053 Y17.1272
G01 Z-2.0000
G01 Z0
G00 Z2.0000
G00 X12.2453 Y17.1272
G01 Z-2.0000
G01 Z0
G00 Z2.0000
G00 X14.7853 Y17.1272
G01 Z-2.0000
G01 Z0
G00 Z2.0000
G00 X17.3253 Y17.1272
G01 Z-2.0000
G01 Z0
G00 Z2.0000
G00 X19.8653 Y17.1272
G01 Z-2.0000
G01 Z0
G00 Z2.0000
G00 X22.4053 Y17.1272
G01 Z-2.0000
G01 Z0
G00 Z2.0000
G00 X24.9453 Y17.1272
G01 Z-2.0000
G01 Z0
G00 Z2.0000
G00 X12.2453 Y6.9672
G01 Z-2.0000
G01 Z0
G00 Z2.0000
G00 X12.2453 Y4.4272
G01 Z-2.0000
G01 Z0
G00 Z2.0000
G00 X24.9453 Y4.4272
G01 Z-2.0000
G01 Z0
G00 Z2.0000
G00 X24.9453 Y6.9672
G01 Z-2.0000
G01 Z0
G00 Z2.0000
G00 X30.0253 Y9.5072
G01 Z-2.0000
G01 Z0
G00 Z2.0000
G00 X32.5653 Y9.5072
G01 Z-2.0000
G01 Z0
G00 Z2.0000
G00 X42.7253 Y9.5072
G01 Z-2.0000
G01 Z0
G00 Z2.0000
G00 X42.7253 Y19.6672
G01 Z-2.0000
G01 Z0
G00 Z2.0000
G00 X35.1053 Y17.1272
G01 Z-2.0000
G01 Z0
G00 Z2.0000
G00 X32.5653 Y17.1272
G01 Z-2.0000
G01 Z0
G00 Z2.0000
G00 X30.0253 Y17.1272
G01 Z-2.0000
G01 Z0
G00 Z2.0000
G00 X27.4853 Y17.1272
G01 Z-2.0000
G01 Z0
G00 Z2.0000
G00 X35.1053 Y24.7472
G01 Z-2.0000
G01 Z0
G00 Z2.0000
G00 X32.5653 Y24.7472
G01 Z-2.0000
G01 Z0
G00 Z2.0000
G00 X30.0253 Y24.7472
G01 Z-2.0000
G01 Z0
G00 Z2.0000
G00 X27.4853 Y24.7472
G01 Z-2.0000
G01 Z0
G00 Z2.0000
G00 X24.9453 Y24.7472
G01 Z-2.0000
G01 Z0
G00 Z2.0000
G00 X22.4053 Y24.7472
G01 Z-2.0000
G01 Z0
G00 Z2.0000
G00 X19.8653 Y24.7472
G01 Z-2.0000
G01 Z0
G00 Z2.0000
G00 X17.3253 Y24.7472
G01 Z-2.0000
G01 Z0
G00 Z2.0000
G00 X14.7853 Y24.7472
G01 Z-2.0000
G01 Z0
G00 Z2.0000
G00 X12.2453 Y24.7472
G01 Z-2.0000
G01 Z0
G00 Z2.0000
G00 X9.7053 Y24.7472
G01 Z-2.0000
G01 Z0
G00 Z2.0000
G00 X7.1653 Y24.7472
G01 Z-2.0000
G01 Z0
G00 Z2.0000
G01 F100.00

M5
G00 Z5.0000
T5
G00 X0.0000 Y0.0000                
M6
(MSG, Change to Tool Dia = 1.0668 ||| Total drills for tool T5 = 9)
M0
G00 Z5.0000

G01 F100.00
M03 S500
G00 X27.4853 Y34.9072
G01 Z-2.0000
G01 Z0
G00 Z2.0000
G00 X24.9453 Y34.9072
G01 Z-2.0000
G01 Z0
G00 Z2.0000
G00 X22.4053 Y34.9072
G01 Z-2.0000
G01 Z0
G00 Z2.0000
G00 X9.7053 Y32.3672
G01 Z-2.0000
G01 Z0
G00 Z2.0000
G00 X12.2453 Y32.3672
G01 Z-2.0000
G01 Z0
G00 Z2.0000
G00 X14.7853 Y32.3672
G01 Z-2.0000
G01 Z0
G00 Z2.0000
G00 X35.1053 Y37.4472
G01 Z-2.0000
G01 Z0
G00 Z2.0000
G00 X37.6453 Y37.4472
G01 Z-2.0000
G01 Z0
G00 Z2.0000
G00 X40.1853 Y37.4472
G01 Z-2.0000
G01 Z0
G00 Z2.0000
M05
G00 Z0.50


